!!!COM: Brahms, Johannes
!!!CDT: 1833/05/07/-1897/04/03/
!!!OTL: Scherzo in E-flat minor for piano
!!!OPS: Op. 4
!!!PDT: 1854
!!!ODT: 1854
**kern	**dynam	**kern	**dynam
=1-	=1-	=1-	=1-
*clefG2	*clefG2	*clefG2	*clefG2
*k[]	*k[]	*k[]	*k[]
*M3/4	*M3/4	*M3/4	*M3/4
*MM192	*MM192	*MM192	*MM192
(8b-/L	.	(8ff\L	.
8e-/	.	8gg-\	.
8g-/J	.	8ee-\J	.
=2	=2	=2	=2
8B-'/)	.	8dd\ 8bb-'\)	.
8r	.	8r	.
4r	.	4r	.
4r	.	4r	.
=3	=3	=3	=3
4r	.	4r	.
8r	.	8r	.
(8b-/L	.	(8ff\L	.
8e-/	.	8gg-\	.
8g-/J	.	8ee-\J	.
=4	=4	=4	=4
8B-'/)	.	8dd\ 8bb-'\)	.
8r	.	8r	.
4r	.	4r	.
4r	.	4r	.
=5	=5	=5	=5
4r	.	4r	.
8r	.	8r	.
(8b-/L	.	(8ff\L	.
8e-/	.	8gg-\	.
8g-/J	.	[8ee-\J	.
=6	=6	=6	=6
8A-'/)	.	8ee-\] 8ccc-'\)	.
8r	.	8r	.
8r	.	4r	.
*clefF4	*clefF4	*	*
(8F\L	.	.	.
8G-\	.	8ee-\ 8bb-'\	.
8E-\J	.	8r	.
=7	=7	=7	=7
8f'\)	.	8cc-\ 8ee-\ 8aa-'\	.
8r	.	8r	.
8r	.	4r	.
(8D/L	.	.	.
8E-/	.	8b-\ 8ee-\ 8gg-'\	.
8BB-/J	.	8r	.
=8	=8	=8	=8
8A-'\)	.	8cc-\ 8ee-\ 8ff'\	.
8r	.	8r	.
4r	.	4r	.
8A'\	.	8g-\ 8cc\ 8ee-'\	.
8r	.	8r	.
=9	=9	=9	=9
8B-'\	.	8f/ 8b-/ 8dd'/	.
8r	.	8r	.
8r	.	4r	.
(8E\L	.	.	.
8F\	.	4r	.
8D\J	.	.	.
=10	=10	=10	=10
8BB-'/)	.	4r	.
8r	.	.	.
4r	.	8r	.
.	.	8e/L	.
4r	.	8f/	.
.	.	8d/J	.
*clefG2	*clefG2	*	*
=11	=11	=11	=11
*^	*	*	*
4r	2.B-\	.	4r	.
8r	.	.	8r	.
(8d/L	.	.	(8ff\L	.
8e-/	.	.	8gg-\	.
8g-/J	.	.	8ee-\J	.
=12	=12	=12	=12	=12
8b-/)	2.B-\	.	8dd\ 8bb-'\)	.
8r	.	.	8r	.
8r	.	.	8r	.
(8d/L	.	.	(8ff\L	.
8e-/	.	.	8gg-\	.
8g-/J	.	.	8ee-\J	.
=13	=13	=13	=13	=13
8b-/)	(4B-\	.	8dd\ 8bb-'\)	.
8r	.	.	8r	.
4r	4c-\	.	4r	.
4r	4c\)	.	4r	.
=14	=14	=14	=14	=14
4r	2.d-\	.	4r	.
8r	.	.	8r	.
(8f/L	.	.	(8aa-\L	.
8g-/	.	.	8bb-\	.
8b-/J	.	.	8gg-\J	.
=15	=15	=15	=15	=15
8dd-/)	(4d-\	.	8ff\ 8ddd-'\)	.
8r	.	.	8r	.
4r	4e-\	.	4r	.
4r	4e\)	.	4r	.
=16	=16	=16	=16	=16
4r	2.f\	.	4r	.
8r	.	.	8r	.
(8a/	.	.	(8ccc\L	.
4b-'/)	.	.	8dd-\ 8ddd-\	.
.	.	.	8bb-\J)	.
*v	*v	*	*	*
=17	=17	=17	=17
4f/ 4a-/ 4b-/	.	8dd\ 8ddd\L	.
.	.	8bb\	.
4f/ 4a-/ 4cc-/	.	8ee-\ 8eee-\	.
.	.	8ccc\	.
4f/ 4b-/ 4dd-/	.	8ee\ 8eee-\	.
.	.	8ddd-\J	.
=18	=18	=18	=18
2.f\ 2.ee-\	.	2.gg-\ 2.aa\ 2.ccc\ 2.ggg-\	.
=19	=19	=19	=19
2.f/ 2.dd-/	.	2.ff\ 2.bb-\ 2.fff\	.
=20	=20	=20	=20
4f/ 4cc'/	.	4ee-\ 4aa\ 4eee-'\	.
4f/ 4b-'/	.	4dd-\ 4ddd-'\	.
4f/ 4a'/	.	4cc\ 4ccc'\	.
*clefF4	*clefF4	*	*
=21	=21	=21	=21
4D-\ 4d-'\	.	4b-\ 4ff\ 4bb-'\	.
4C'/	.	8r	.
.	.	(8c/L	.
4BB-'/	.	8d-/	.
.	.	8B-/J)	.
=22	=22	=22	=22
2.G-\ 2.g-\	.	4r	.
.	.	4a'/	.
.	.	4cc'\	.
=23	=23	=23	=23
2.F\ 2.d-\ 2.f\	.	4ee-'\	.
.	.	4aa'\	.
.	.	4ccc'\	.
=24	=24	=24	=24
4E-\ 4e-'\	.	4gg-\ 4ggg-'\	.
4D-\ 4d-'\	.	4ff\ 4fff'\	.
4C#\ 4c'\	.	4ff\ 4fff'\	.
=25	=25	=25	=25
4BB-\ 4B-'\	.	4gg-\ 4ggg-'\	.
4r	.	4ff\ 4fff'\	.
4r	.	4ff\ 4fff'\	.
*clefG2	*clefG2	*	*
=26	=26	=26	=26
*^	*	*	*
4ee-'/	2.r	.	4gg-\ 4ggg-'\	.
4dd-'/	.	.	4ff\ 4fff'\	.
4cc'/	.	.	4ff\ 4fff'\	.
=27	=27	=27	=27	=27
4b-'/	4e-'\	.	4gg-\ 4ggg-'\	.
4r	4d-'\	.	4ff\ 4fff'\	.
4r	4c'\	.	4ff\ 4fff'\	.
*v	*v	*	*	*
*clefF4	*clefF4	*	*
=28	=28	=28	=28
*^	*	*	*
4B-'/	4E-'\	.	4gg-\ 4ggg-'\	.
4r	4D-'\	.	4ff\ 4fff'\	.
4r	4C'\	.	4ff\ 4fff'\	.
*v	*v	*	*	*
=29	=29	=29	=29
4EE-/	.	4gg-\ 4ggg-'\	.
*^	*	*	*
4DD-'/	4r	.	4ff\ 4fff'\	.
4CC'/	4r	.	4ff\ 4fff'\	.
*v	*v	*	*	*
=30	=30	=30	=30
4BBB-'/	.	4gg-\ 4ggg-'\	.
4r	.	4ff\ 4fff'\	.
4r	.	4ff\ 4fff'\	.
=31	=31	=31	=31
2.r	.	2.r	.
=32	=32	=32	=32
2.r	.	4dd-\ 4ddd-'\	p
.	.	4b-\ 4bb-'\	.
.	.	4b-\ 4bb-'\	.
=33	=33	=33	=33
4r	.	4r	.
8r	.	8r	.
=34:|!	=34:|!	=34:|!	=34:|!
2.r	.	2.r	.
=35	=35	=35	=35
4c-'\	.	2.r	.
4A-'\	.	.	.
4A-'\	.	.	.
=36	=36	=36	=36
4c-'\	.	4r	.
4A-'\	.	8r	.
.	.	(8f/L	p
4A-'\	.	8g-/	.
.	.	8e-/J)	.
=37	=37	=37	=37
4c'\	.	2.r	.
4A'\	.	.	.
4A'\	.	.	.
*	*	*clefF4	*clefF4
=38	=38	=38	=38
4c'\	.	4r	.
4A'\	.	8r	.
.	.	(8F\L	.
4A'\	.	8G-\	.
.	.	8E-\J)	.
*	*	*clefG2	*clefG2
=39	=39	=39	=39
4d-'\	.	4r	.
4B-'\	.	8r	.
.	.	(8f#/L	.
4B-'\	.	8g/	.
.	.	8e-/J)	.
=40	=40	=40	=40
4d-'\	.	4r	.
4c'\	.	8r	.
.	.	(8g/L	.
4c'\	.	8a-/	.
.	.	8e-/J)	.
=41	=41	=41	=41
4d-'\	.	8r	.
.	.	(8a-\L	.
4c-'\	.	8a'\	.
.	.	8g-\	.
4c-'\	.	8a\	.
.	.	8ee-\J)	.
=42	=42	=42	=42
4e-'\	.	8r	.
.	.	(8b-\L	.
4c-'\	.	8cc-\	.
.	.	8a\	.
4c-'\	.	8ee-\	.
.	.	8gg-\J)	.
=43	=43	=43	=43
4g-'\	.	8r	.
.	.	(8dd\L	.
4c-'\	.	8ee-\	.
.	.	8cc-\	.
4c-'\	.	8ee-\	.
.	.	8aa\J)	.
=44	=44	=44	=44
4a'\	.	8r	.
.	.	(8ff\L	.
4c-'\	.	8gg-\	.
.	.	8ee-\	.
4c-'\	.	8aa\	.
.	.	8eee-\J	.
=45	=45	=45	=45
4B-\ 4b-'\	.	4bb-\ 4ddd'\)	p
4BB-\ 4B-'\	.	4r	.
4BB-\ 4B'\	.	4r	.
=46	=46	=46	=46
4C\ 4c'\	.	2.r	.
4D-\ 4d-'\	.	.	.
4D\ 4d'\	.	.	.
=47	=47	=47	=47
2.E-\ 2.G-\ 2.B-\ (2.e-\	.	4cc-'\	p
.	.	4b-'\	.
.	.	4b-'\	.
*clefG2	*clefG2	*	*
=48	=48	=48	=48
2B-/ 2f/	.	4cc-'\	.
.	.	4b-'\	.
4e-/ 4g-/	.	4b-'\	.
=49	=49	=49	=49
2.B-/ 2.f/	mp	4cc-'\	.
.	.	4b-'\	.
.	.	4b-'\	.
=50	=50	=50	=50
2G-/ 2e-/)	.	4cc-'\	.
.	.	4b-'\	.
4r	.	4b-'\	.
=51	=51	=51	=51
2.e-/ 2.g-/	.	4cc-'\	.
.	.	4b-'\	.
.	.	4b-'\	.
=52	=52	=52	=52
2f/ 2a-/	.	4cc-'\	.
.	.	4b-'\	.
4g-/ 4b-/	.	4b-'\	.
=53	=53	=53	=53
2.f/ 2.a-/	.	4cc-'\	.
.	.	4b-'\	.
.	.	4b-'\	.
=54	=54	=54	=54
2e-/ 2g-/	.	4cc-'\	.
.	.	4b-'\	.
4r	.	4b-'\	.
*clefF4	*clefF4	*	*
=55	=55	=55	=55
4c-'\	.	2.e-/ 2.g-/ 2.cc-/ 2.ee-/	.
4C-'/	.	.	.
4C-'/	.	.	.
=56	=56	=56	=56
4G-'\	.	2d-/ 2g-/ 2b-/ 2dd-/	.
4GG-'/	.	.	.
4C-'/	.	4e-/ 4g-/ 4cc-/ 4ee-/	.
=57	=57	=57	=57
4G-'\	.	2.d-/ 2.g-/ 2.b-/ 2.dd-/	.
4GG-'/	.	.	.
4GG-'/	.	.	.
=58	=58	=58	=58
4A-'\	.	2.c-/ 2.e-/ 2.a-/ 2.cc-/	.
4AA-'/	.	.	.
4AA-'/	.	.	.
=59	=59	=59	=59
4E-'\	.	2.B-/ 2.e-/ 2.g-/ 2.b-/	.
4EE-'/	.	.	.
4EE-'/	.	.	.
=60	=60	=60	=60
*	*	*^	*
4C-'/	.	4A-/ (4a-/	2.e-\	.
4CC-'/	.	4G-/ 4g-/	.	.
4CC-'/	.	4A-/ 4a-/)	.	.
*	*	*v	*v	*
=61	=61	=61	=61
4BB-'/	.	2B-/ 2d/ 2f/ 2b-/	.
4BBB-'/	.	.	.
4CC-/ 4C-'/	.	4c-/ 4cc-'/	.
=62	=62	=62	=62
4CC/ 4C'/	.	4c/ 4cc'/	.
4DD-/ 4D-'/	.	4d-/ 4dd-'/	.
4DD/ 4D'/	.	4d/ 4dd'/	.
=63	=63	=63	=63
4EE-/ 4E-'/	.	4e-/ 4cc-/ 4ee-'/	.
4B-'\	.	4b-'\	.
4B-'\	.	4b-'\	.
=64	=64	=64	=64
4E-\ 4G-\ 4c-'\	.	4f\ 4cc-\ 4ff'\	.
4B-'\	.	4b-'\	.
4B-'\	.	4g-\ 4b-\ 4gg-'\	.
=65	=65	=65	=65
4E-\ 4G-\ 4c-'\	.	4f\ 4cc-\ 4ff'\	.
4B-'\	.	4b-'\	.
4B-'\	.	4b-'\	.
=66	=66	=66	=66
4E-\ 4G-\ 4c-'\	.	4e-/ 4cc-/ 4ee-/	.
4B-'\	.	4b-'\	.
4B-'\	.	4b-'\	.
=67	=67	=67	=67
4E-\ 4G-\ 4c-'\	.	4g-\ 4cc-\ 4gg-'\	.
4B-'\	.	4b-'\	.
4B-'\	.	4b-'\	.
=68	=68	=68	=68
4E-\ 4G-\ 4c-'\	.	4a-\ 4cc-\ 4aa-'\	.
4B-'\	.	4b-'\	.
4B-'\	.	4b-\ 4bb-'\	.
=69	=69	=69	=69
4E-\ 4G-\ 4c-'\	.	4a-\ 4cc-\ 4aa-'\	.
4B-'\	.	4b-'\	.
4B-'\	.	4b-'\	.
=70	=70	=70	=70
4E-\ 4G-\ 4c-'\	.	4g-\ 4cc-\ 4gg-'\	.
4B-'\	.	4b-'\	.
4B-'\	.	4b-'\	.
=71	=71	=71	=71
4C-\ 4E-\ 4G-\ 4c-'\	.	2.ee-\ 2.gg-\ 2.ccc-\ 2.eee-\	ff
4CC-/ 4C-'/	.	.	.
4CC-/ 4C-'/	.	.	.
=72	=72	=72	=72
4GG-/ 4G-'/	.	2dd-\ 2gg-\ 2bb-\ 2ddd-\	.
4GGG-/ 4GG-'/	.	.	.
4CC-/ 4C-'/	.	4ee-\ 4gg-\ 4ccc-\ 4eee-\	.
=73	=73	=73	=73
4GG-/ 4G-'/	.	2.dd-\ 2.gg-\ 2.bb-\ 2.ddd-\	.
4GGG-/ 4GG-'/	.	.	.
4GGG-/ 4GG-'/	.	.	.
=74	=74	=74	=74
4AA-\ 4A-'\	.	2.cc-\ 2.ee-\ 2.aa-\ 2.ccc-\	.
4AAA-/ 4AA-'/	.	.	.
4AAA-/ 4AA-'/	.	.	.
=75	=75	=75	=75
4E-\ 4G-\ 4B-\ 4e-'\	.	2.b-\ 2.ee-\ 2.gg-\ 2.bb-\	.
4EE-/ 4E-'/	.	.	.
4EE-/ 4E-'/	.	.	.
=76	=76	=76	=76
*	*	*^	*
4C-\ 4E-\ 4c-'\	.	2.ee-/	4a-\ (4aa-\	.
4CC-/ 4C-'/	.	.	4g-\ 4gg-\	.
4CC-/ 4C-'/	.	.	4a-\ 4aa-\)	.
*	*	*v	*v	*
=77	=77	=77	=77
4BB-\ 4D\ 4B-'\	.	2.b-\ [2.dd\ [2.ff\ [2.bb-\	.
4BBB-/ 4BB-'/	.	.	.
4BBB-/ 4BB-'/	.	.	.
=78	=78	=78	=78
4BB-\ 4B-'\	.	4b-\ 4dd\] 4ff\] 4bb-\]	.
4BBB-/ 4BB-'/	.	8r	.
.	.	(8ff\L	.
4EE-/ 4E-'/	.	8gg-\	.
.	.	8ee-\J	.
=79	=79	=79	=79
4BB-\ 4B-'\	.	8b-\ 8bb-'\)	.
.	.	8r	.
4BBB-/ 4BB-'/	.	8r	.
.	.	(8ff\L	.
4EE-/ 4E-'/	.	8gg-\	.
.	.	8ee-\J	.
=80	=80	=80	=80
4BB-\ 4B-'\	.	8b-\ 8bb-'\)	.
.	.	8r	.
4BBB-/ 4BB-'/	.	8r	.
.	.	(8ff\L	.
4EE-/ 4E-'/	.	8gg-\	.
.	.	8ee-\J	p
=81	=81	=81	=81
4BB-\ 4B-'\	.	8b-\ 8bb-'\)	.
.	.	8r	.
8r	.	4r	.
(8FF/L	.	.	.
8GG-/	.	4r	.
8EE-/J	.	.	.
=82	=82	=82	=82
8BB-'/)	.	4r	.
8r	.	.	.
4r	.	8r	.
.	.	8F/L	.
4r	.	8G-/	.
.	.	8E-/J	.
*clefG2	*clefG2	*	*
=83	=83	=83	=83
*^	*	*	*
4r	2.B-\	.	4r	.
8r	.	.	8r	.
(8d/L	.	.	(8ff\L	.
8e-/	.	.	8gg-\	.
8g-/J	.	.	8ee-\J	.
=84	=84	=84	=84	=84
8b-/)	2.B-\	.	8dd\ 8bb-'\)	.
8r	.	.	8r	.
8r	.	.	8r	.
(8d/L	.	.	(8ff\L	.
8e-/	.	.	8gg-\	.
8g-/J	.	.	8ee-\J	.
=85	=85	=85	=85	=85
8b-/)	2.B-\	.	8dd\ 8bb-'\)	.
8r	.	.	8r	.
4r	.	.	8r	.
*	*	*	*clefF4	*clefF4
.	.	.	(8E\L	.
4r	.	.	8F\	.
.	.	.	8D\J	.
=86	=86	=86	=86	=86
4r	[2.B-\	.	8BB-'/)	.
.	.	.	8r	.
8r	.	.	8r	.
*	*	*	*clefG2	*clefG2
8d/L	.	.	(8ff\L	.
8e-/	.	.	8gg-\	.
8g-/J	.	.	[8ee-\J	.
=87	=87	=87	=87	=87
8a-/	2.B-\_	.	8ee-\] 8ccc-'\)	.
8r	.	.	8r	.
8r	.	.	4r	.
(8f/L	.	.	.	.
8g-/	.	.	8ee-\ 8bb-'\	.
8e-/J	.	.	8r	.
=88	=88	=88	=88	=88
8cc-/)	4.B-\]	.	8ee-\ 8aa-'\	.
8r	.	.	8r	.
8r	.	.	4r	.
*v	*v	*	*	*
(8d/L	.	.	.
8e-/	.	8b-\ 8ee-\ 8gg-'\	.
[8B-/J	.	8r	.
=89	=89	=89	=89
*^	*	*	*
8a-'/)	2.B-\]	.	8cc-\ 8ff'\	.
8r	.	.	8r	.
4r	.	.	4r	.
8g-'/	.	.	8a\ 8cc\ 8ee-'\	.
8r	.	.	8r	.
=90	=90	=90	=90	=90
8f'/	8B-\	.	8b-\ 8dd'\	.
*v	*v	*	*	*
8r	.	8r	.
8r	.	4r	.
*clefF4	*clefF4	*	*
(8E\L	.	.	.
8F\	.	4r	.
8D\J	.	.	.
=91	=91	=91	=91
8BB-'/)	.	4r	.
8r	.	.	.
4r	.	8r	.
.	.	(8e/L	.
4r	.	8f/	.
.	.	8d/J)	f
*clefG2	*clefG2	*	*
=92	=92	=92	=92
*^	*	*	*
4r	2.B-\	.	4r	.
8r	.	.	8r	.
(8d-/L	.	.	(8ff\L	.
8e-/	.	.	8gg-\	.
8g-/J	.	.	8ee-\J	.
=93	=93	=93	=93	=93
4b-/)	2.B-\	.	8dd\ 8bb-'\)	.
.	.	.	8r	.
8r	.	.	8r	.
(8d/L	.	.	(8ff\L	.
8e-/	.	.	8gg-\	.
8g-/J	.	.	8ee-\J	.
=94	=94	=94	=94	=94
4b-/)	(4B-\	.	8dd\ 8bb-'\)	.
.	.	.	8r	.
4r	4c-\	.	4r	.
4r	4c\)	.	4r	.
=95	=95	=95	=95	=95
4r	2.d-\	.	4r	.
8r	.	.	8r	.
(8f/L	.	.	8aa-\L	.
8g-/	.	.	8bb-\	.
8b-/J	.	.	8gg-\J	.
=96	=96	=96	=96	=96
4dd-/)	(4d-\	.	8ff\ 8ddd-\	.
.	.	.	8r	.
4r	4d\	.	4r	.
4r	4e-\)	.	4r	.
=97	=97	=97	=97	=97
4r	[2.e\	.	4r	.
8r	.	.	8r	.
(8g#/L	.	.	(8bb\L	.
8a/	.	.	8ccc#\	.
8cc#/J	.	.	8aa\J	.
=98	=98	=98	=98	=98
8ee/)	2.e\_	.	8gg#\ 8eee'\)	.
8r	.	.	8r	.
8r	.	.	8r	.
(8g#/L	.	.	(8bb\L	.
8a/	.	.	8ccc#\	.
8cc#/J	.	.	8aa\J	.
=99	=99	=99	=99	=99
8ee/)	2.e\_	.	8gg#\ 8eee'\)	.
8r	.	.	8r	.
8r	.	.	8r	.
(8g#/L	.	.	8bb\L	.
8a/	.	.	8ccc#\	.
8cc#/J	.	.	8aa\J	.
=100	=100	=100	=100	=100
8ee/)	8e\]	.	8gg#\ 8eee'\	.
*v	*v	*	*	*
8r	.	8r	.
4e/ 4b'/	.	4gg#\ 4ddd'\	.
4e/ 4b'/	.	4gg#\ 4ddd'\	.
=101	=101	=101	=101
4f/ 4cc-'/	p	4dd\ 4aa-\ 4ddd'\	.
4f/ 4cc-'/	.	4dd\ 4aa-\ 4ddd'\	.
4f/ 4cc-'/	.	4dd\ 4aa-\ 4ddd'\	.
=102	=102	=102	=102
4g-/ 4b-'/	.	4ee-\ 4bb-\ 4eee-'\	.
4g-/ 4b-'/	.	4ee-\ 4bb-\ 4eee-'\	.
4g-/ 4b-'/	.	4ee-\ 4bb-\ 4eee-'\	.
*clefF4	*clefF4	*	*
=103	=103	=103	=103
4r	.	4r	.
4r	.	4r	.
4GG/ 4E-/ 4G'/	.	4b-\ 4dd-\ 4ee-\ 4bb-'\	ff
=104	=104	=104	=104
2.AA-\ 2.E-\ 2.A-\	.	2.cc-\ 2.ee-\ 2.ccc-\	.
=105	=105	=105	=105
2.BB-\ 2.E-\ 2.F\ 2.B-\	.	2.b-\ 2.ee-\ 2.bb-\	.
=106	=106	=106	=106
4C-\ 4F\ 4c-'\	.	4a-\ 4ee-\ 4aa-'\	.
4BB-\ 4F\ 4B-'\	.	4g-\ 4ee-\ 4gg-'\	.
4AA-\ 4F\ 4A-'\	.	4f\ 4ee-\ 4ff'\	.
=107	=107	=107	=107
4GG-/ 4G-'/	.	4e-/ 4b-/ 4ee-'/	.
4FF/ 4F'/	.	4r	.
4EE-/ 4E-'/	.	4B-/ 4e-/ 4g-/ 4b-'/	.
=108	=108	=108	=108
2.AAA-/ 2.DD-/ 2.AA-/	.	2.c-/ 2.e-/ 2.f/ 2.cc-/	.
=109	=109	=109	=109
2.BBB-/ 2.BB-/	.	2.B-/ 2.e-/ 2.f/ 2.b-/	.
=110	=110	=110	=110
4CC-/ 4C-'/	.	4A-/ 4e-/ 4a-'/	.
4BBB-/ 4BB-'/	.	4G-/ 4e-/ 4g-'/	.
4AAA-/ 4AA-'/	.	4F/ 4e-/ 4f'/	.
=111	=111	=111	=111
2AAA/ 2AA/	.	2c/ 2e-/ 2f/ 2cc/	.
4r	.	4F/ 4f'/	.
=112	=112	=112	=112
2.BBB-/ 2.FF/ 2.BB-/	.	2.f\ 2.b-\ 2.dd-\ 2.ff\	.
=113	=113	=113	=113
2.CC/ 2.C/	.	2.e-/ 2.g-/ 2.b-/ 2.ee-/	.
=114	=114	=114	=114
2FF/ 2BB-/ 2F/	.	2d-/ 2f/ 2b-/ 2dd-/	.
[4EE-/ [4C/ [4E-/	.	[4c/ [4f/ [4cc/	.
=115	=115	=115	=115
4EE-/] 4C/] 4E-/]	.	4c/] 4f/] 4cc/]	.
2DD-/ 2D-/	.	2B-/ 2d-/ 2f/ 2b-/	.
=116	=116	=116	=116
[2.DD/ [2.AA-/ [2.D/	.	[2.cc-\ [2.ff\ [2.aa-\ [2.ccc-\	ff
=117	=117	=117	=117
4DD/] 4AA-/] 4D/]	.	4cc-\] 4ff\] 4aa-\] 4ccc-'\]	.
8r	.	8r	.
(8BB-/L	.	(8c#/L	.
8C-/	.	8d/	.
8D/J	.	8c-/J	.
=118	=118	=118	=118
8F'\)	.	8f'/)	.
8r	.	8r	.
4r	.	4r	.
4r	.	4r	.
=119	=119	=119	=119
4r	.	4r	.
8r	.	8r	.
(8C#\L	.	(8e/L	.
8D\	.	8f/	.
8F\J	.	8d/J	.
=120	=120	=120	=120
8A-'\)	.	8a-'/)	.
8r	.	8r	.
4r	.	4r	.
4r	.	4r	.
=121	=121	=121	=121
4r	.	4r	.
8r	.	8r	.
8E\L	.	(8b-/L	.
(8F\	.	8cc-/	.
8A-\J	.	8f/J	.
*clefG2	*clefG2	*	*
=122	=122	=122	=122
8d/L	.	8dd\L	.
8B-/	.	8cc#\	.
8c-/	.	8dd\	.
8d/	.	8cc-\	.
8f/	.	8ff\	.
8c#/J	.	8ee\J	.
=123	=123	=123	=123
8d/L	.	8ff\L	.
8f/	.	8dd\	.
8a-/	.	8ccc-\	.
8e/	.	8bb-\	.
8f/J)	.	8ccc-\	.
8r	.	8ff\J)	.
=124	=124	=124	=124
(8a-/L	.	(8aaa-\L	.
8g-/	.	8ggg-\	.
8f/	.	8fff\	.
8e-/	.	8eee-\	mp
8d/	.	8ddd\	.
8c-/J	.	8ccc-\J	.
*clefF4	*clefF4	*	*
=125	=125	=125	=125
8B-\L	.	8bb-\L	.
8A-\	.	8aa-\	.
8G-\	.	8gg-\	.
8F\	.	8ff\	.
8E-\	.	8ee-\	.
8D\J	.	8dd\J	.
=126	=126	=126	=126
8C-/L	.	8cc-/L	.
8BB-/	.	8b-/	.
8AA-/	.	8a-/	.
8GG-/	.	8g-/	.
8FF/	.	8f/	.
8EE-/J	.	8e-/J	.
=127	=127	=127	=127
8DD/L	.	8d/L	.
8CC-/	.	8c-/	.
8BBB-/	.	8B-/	.
8AAA-/	.	8A-/	.
8GGG-/	.	8G-/	.
8FFF/J)	.	8F/J)	.
=128	=128	=128	=128
4EEE-/ 4EE-'/	.	4e-/ 4cc-/ 4ee-'/	.
4BB-'/	.	4b-'\	.
4BB-'/	.	4b-'\	.
=129	=129	=129	=129
4FF/ 4C-/ 4F'/	.	4f\ 4cc-\ 4ff'\	.
4BB-'/	.	4b-'\	.
4GG-/ 4BB-/ 4G-'/	.	4g-\ 4b-\ 4gg-'\	.
=130	=130	=130	=130
4FF/ 4C-/ 4F'/	.	4f\ 4cc-\ 4ff'\	.
4BB-'/	.	4b-'\	.
4BB-'/	.	4b-'\	.
=131	=131	=131	=131
4EE-/ 4C-/ 4E-'/	.	4e-/ 4cc-/ 4ee-'/	.
4BB-'/	.	4b-'\	.
4BB-'/	.	4b-'\	.
=132	=132	=132	=132
4GG-/ 4C-/ 4G-'/	.	4g-\ 4cc-\ 4gg-'\	.
4BB-'/	.	4b-'\	.
4BB-'/	.	4b-'\	.
=133	=133	=133	=133
4AA-\ 4C-\ 4A-'\	.	4a-\ 4cc-\ 4aa-'\	f
4BB-'/	.	4b-'\	.
4BB-\ 4B-'\	.	4b-\ 4bb-'\	.
=134	=134	=134	=134
4AA-\ 4C-\ 4A-'\	.	4a-\ 4cc-\ 4aa-'\	f
4BB-'/	.	4b-'\	.
4BB-'/	.	4b-'\	.
=135	=135	=135	=135
4GG-/ 4C-/ 4G-'/	.	4g-\ 4cc-\ 4gg-'\	.
4BB-'/	.	4b-'\	.
4BB-'/	.	4b-'\	.
=136	=136	=136	=136
4EE-/ 4C-/ 4E-'/	.	4e-/ 4cc-/ 4ee-'/	.
4BB-'/	.	4b-'\	.
4BB-'/	.	4b-'\	.
=137	=137	=137	=137
4FF/ 4C-/ 4F'/	.	4f\ 4cc-\ 4ff'\	.
4BB-'/	.	4b-'\	.
4GG-/ 4BB-/ 4G-'/	.	4g-\ 4b-\ 4gg-'\	.
=138	=138	=138	=138
4FF/ 4C-/ 4F'/	.	4f\ 4cc-\ 4ff'\	.
4BB-'/	.	4b-'\	.
4BB-'/	.	4b-'\	.
=139	=139	=139	=139
4EE-/ 4C-/ 4E-'/	.	4e-/ 4cc-/ 4ee-'/	.
4BB-'/	.	4b-'\	.
4BB-'/	.	4b-'\	.
=140	=140	=140	=140
4GG-/ 4C-/ 4G-'/	.	4g-\ 4cc-\ 4gg-'\	.
4BB-'/	.	4b-'\	.
4BB-'/	.	4b-'\	.
=141	=141	=141	=141
4AA-\ 4C-\ 4A-'\	.	4a-\ 4cc-\ 4aa-'\	.
4BB-'/	.	4b-'\	.
4BB-\ 4B-'\	.	4b-\ 4bb-'\	.
=142	=142	=142	=142
4C-\ 4c-'\	.	4cc-\ 4ccc-'\	.
4AA-\ 4A-'\	.	4a-\ 4aa-'\	.
4FF/ 4F'/	.	4f\ 4ff'\	.
=143	=143	=143	=143
4DD/ 4D'/	.	4d/ 4dd'/	.
4CC-/ 4C-'/	.	4c-/ 4cc-'/	.
4BBB-/ 4BB-'/	.	4B-/ 4b-'/	.
=144	=144	=144	=144
4GG-/ 4C-/ 4G-'/	.	4g-\ 4cc-\ 4gg-'\	.
4BB-'/	.	4b-'\	.
4GG-/ 4G-'/	.	4g-\ 4gg-'\	.
=145	=145	=145	=145
4GG-/ 4G-'/	.	4g-\ 4gg-'\	.
4AA-\ 4A-'\	.	4a-\ 4aa-'\	.
4BB-\ 4B-'\	.	4b-\ 4bb-'\	.
=146	=146	=146	=146
4C-\ 4c-'\	.	4cc-\ 4ccc-'\	.
4AA-\ 4A-'\	.	4a-\ 4aa-'\	.
4FF/ 4F'/	.	4f\ 4ff'\	.
=147	=147	=147	=147
4DD/ 4D'/	.	4dd\ 4ddd'\	.
4CC-/ 4C-'/	.	4cc-\ 4ccc-'\	.
4BBB-/ 4BB-'/	.	4b-\ 4bb-'\	.
=148	=148	=148	=148
4EEE-/ 4EE-'/	.	8e-/ 8g-/ 8b-/ 8ee-'/	.
.	.	8r	.
4r	.	8r	.
*	*	*clefF4	*clefF4
.	.	(8B-\L	.
4AAA-/ 4AA-'/	.	8E-\ 8c-\	.
.	.	8A-\J	.
=149	=149	=149	=149
4EEE-/ 4EE-'/	.	8G-\ 8e-'\)	.
.	.	8r	.
4r	.	8r	.
.	.	(8B-\L	.
4AAA-/ 4AA-'/	.	8E-\ 8c-\	.
.	.	8A-\J	.
=150	=150	=150	=150
8EEE-/ 8EE-'/	.	8G-\)	.
8r	.	8r	.
4r	.	4r	.
4r	.	4r	.
=151	=151	=151	=151
8EEE-/ 8EE-'/	.	8G-\ 8e-'\	.
8r	.	8r	.
4r	.	4r	.
4r	.	4r	.
=152	=152	=152	=152
2.r	.	2.r	.
=153	=153	=153	=153
4r	.	2.r	.
4r	.	.	.
4BBB-/ 4BB-'/	.	.	.
*	*	*clefG2	*clefG2
=154	=154	=154	=154
*k[]	*k[]	*k[]	*k[]
2C\ 2c\	.	2.r	.
4BB-\ 4B-'\	.	.	.
=155	=155	=155	=155
4AA-\ 4A-'\	.	2.r	.
4GG/ 4G'/	.	.	.
4FF/ 4F'/	.	.	.
=156	=156	=156	=156
4EE-/ 4E-'/	.	2.r	.
4DD/ 4D'/	.	.	.
4CC/ 4C'/	.	.	.
=157	=157	=157	=157
4BBB-/ 4BB-'/	.	4r	.
4CC/ 4C'/	.	4r	.
4DD/ 4D'/	.	4B-/ 4b-'/	f
=158	=158	=158	=158
4EE-/ 4E-'/	.	2cc\ 2ccc\	f
(8d\L	.	.	.
8e-\	.	.	.
8g\	.	4b-\ 4bb-'\	.
8e-\J	.	.	.
=159	=159	=159	=159
4B-'\)	.	4a-\ 4aa-'\	.
4r	.	4g\ 4gg'\	.
4r	.	4f\ 4ff'\	.
=160!|:	=160!|:	=160!|:	=160!|:
4BBB-/ 4BB-'/	.	4e-/ 4ee-'/	p
(8G\L	.	4d/ 4dd'/	.
8A-\	.	.	.
8B-\	.	4c/ 4cc'/	.
8A-\J	.	.	.
=161	=161	=161	=161
4F'\)	.	4B-/ 4b-'/	.
4r	.	4c/ 4cc'/	.
4r	.	4d/ 4dd'/	.
=162	=162	=162	=162
4EE-/ 4E-'/	.	4e-/ 4ee-'/	.
4r	.	4r	.
(4E\	.	4B-/ 4c/ 4g/	.
=163	=163	=163	=163
[2.F\)	.	[2.B-/ [2.c'/	.
=164	=164	=164	=164
2F\]	.	2B-/] 2c/]	.
(4D\	.	4A/ (4f/	.
=165	=165	=165	=165
4G\)	.	4B-/ 4d/)	.
4r	.	4r	.
(4E\	.	4B-/ 4d/ 4g/	.
=166	=166	=166	=166
[2.F\)	.	[2.B-/ [2.c/	.
=167	=167	=167	=167
2F\]	.	2B-/] 2c/]	.
4C/	.	4G/ (4e-/	.
=168	=168	=168	=168
4F\	.	4A/ 4c/)	.
4r	.	4r	.
(4D\	.	4A/ (4f/	.
=169	=169	=169	=169
4G\)	.	4B-/ 4d/)	.
4r	.	4r	.
4F\	.	4B-/ 4d/ 4g/	.
=170	=170	=170	=170
*	*	*^	*
2.E\	.	(2b-/	[2.c#\	.
.	.	4a/	.	.
=171	=171	=171	=171	=171
2.E-\	.	2g/	2.c#\]	.
.	.	4a/)	.	.
=172	=172	=172	=172	=172
2.D\ 2.A\	.	(2g/	2.d\	.
.	.	4f#/)	.	.
*	*	*v	*v	*
=173	=173	=173	=173
4r	.	4r	.
4r	.	4r	.
4E\	.	4B-/ 4d/ 4g/	.
=174	=174	=174	=174
[2.F\	.	[2.B-/ (2.c/	.
=175	=175	=175	=175
2F\]	.	2B-/]	.
(4D\	.	4A/ (4f/)	.
=176	=176	=176	=176
4G\)	.	4B-/ 4d/)	.
4r	.	4r	.
(4d\	.	4a\ (4ff\	pp
=177	=177	=177	=177
4g\)	.	4b-\ 4dd\)	.
4r	.	4r	.
(4E\	.	4B-/ 4d/ (4g/	.
=178	=178	=178	=178
[2.F\)	.	[2.B-/ (2.c/)	.
=179	=179	=179	=179
2F\]	.	2B-/]	.
4C/	.	4G/ (4e-/)	.
=180	=180	=180	=180
4F\	.	4A/ 4c/)	.
4r	.	4r	.
(4d\	.	4a\ (4ff\	pp
=181	=181	=181	=181
4g\)	.	4b-\ 4dd\)	.
4r	.	4r	.
(4F\	.	4B-/ 4d/ 4g/	.
=182	=182	=182	=182
*	*	*^	*
2.E-\	.	2b-/	(2.c#\	.
.	.	4a/	.	.
*	*	*v	*v	*
=183	=183	=183	=183
2.E-\)	.	(2g/)	p
.	.	&(4a/&)	.
=184	=184	=184	=184
*	*	*^	*
[2.F\ 2.B-\	.	[2.f/	2c\)	.
.	.	.	(4d\	.
=185	=185	=185	=185	=185
2.F\] 2.A\	.	2.f/]	2c\	.
.	.	.	4e-\)	.
=186	=186	=186	=186	=186
2.F\ 2.B-\	.	(2dd/	2.d\	.
.	.	4b-/	.	.
=187	=187	=187	=187	=187
2.E\ 2.B-\	.	2g/	[2.c#\	.
.	.	4b-/)	.	.
*	*	*v	*v	*
=188	=188	=188	=188
*k[]	*k[]	*k[]	*k[]
*	*	*^	*
[2.F\ 2.B-\	.	[2.f/	2c#\]	.
.	.	.	(4d-\	.
=189	=189	=189	=189	=189
2.F\] 2.A\	.	2.f/_	2c\	.
.	.	.	4e-\)	.
=190	=190	=190	=190	=190
4BB-\ 4B-\	.	4f/]	4d-\	.
*	*	*v	*v	*
4r	.	4r	.
4r	.	([4f/	pp
=191	=191	=191	=191
(4F\	.	4f/]	.
4e-\	.	4ee-\	.
4c-\	.	4cc-\	.
=192	=192	=192	=192
4A\)	.	4a/)	.
4r	.	4r	.
4r	.	([4f/	.
=193	=193	=193	=193
4F\	.	4f/]	.
4g-\	.	4gg-\	.
4e-\	.	4ee-\	.
=194	=194	=194	=194
4A\	.	4a/)	.
4r	.	4r	.
4r	.	([4f/	.
=195	=195	=195	=195
(4F\	.	4f/]	.
4e-\	.	4ee-\	.
4c-\	.	4cc-\	.
=196	=196	=196	=196
4A\)	.	4a/)	.
4r	.	4r	.
4r	.	([4f/	.
=197	=197	=197	=197
4F\	.	4f/]	.
4g-\	.	4gg-\	.
4e-\	.	4ee-\	.
=198	=198	=198	=198
4A\	.	4a/)	.
4r	.	4r	.
4r	.	[4f/	.
=199	=199	=199	=199
*k[]	*k[]	*k[]	*k[]
(4F\	.	4f/]	.
4e-\)	.	4ee-\	.
4r	.	[4a/	.
=200	=200	=200	=200
(4A\	.	(4a/]	.
4g\)	.	4gg\)	.
4r	.	[4f/	.
=201	=201	=201	=201
(4F\	.	4f/]	.
4e-\)	.	4ee-\	.
4r	.	[4a/	.
=202	=202	=202	=202
(4A\	.	(4a/]	.
4g\)	.	4gg\)	.
4r	.	4f'/	.
=203	=203	=203	=203
2.r	.	4gg\ 4ggg'\	f
.	.	4ff\ 4fff'\	.
.	.	4ee-\ 4eee-'\	.
=204	=204	=204	=204
4r	.	4dd\ 4ddd'\	.
4r	.	4cc\ 4ccc'\	.
4FF/ 4F'/	.	4b-\ 4bb-'\	.
=205	=205	=205	=205
2G\ 2g\	.	2a\ 2aa\	.
4F\ 4f'\	.	4r	.
=206	=206	=206	=206
4E-\ 4e-'\	.	4r	.
4D\ 4d'\	.	4r	.
4C\ 4c'\	.	4B-/ 4b-'/	.
=207	=207	=207	=207
4BB-\ 4B-'\	.	2cc\ 2ccc\	f
(8G\L	.	.	.
8A-\	.	.	.
8d\	.	4b-\ 4bb-'\	.
8A-\J	.	.	.
=208	=208	=208	=208
4F'\)	.	4a-\ 4aa-'\	.
4r	.	4g\ 4gg'\	.
4r	.	4f\ 4ff'\	.
=209:|!	=209:|!	=209:|!	=209:|!
4BBB-/ 4BB-'/	.	2cc\ 2ccc\	.
(8G\L	.	.	.
8A-\	.	.	.
8d\	.	4b-\ 4bb-'\	.
8A-\J	.	.	.
=210	=210	=210	=210
4F'\)	.	4a-\ 4aa-'\	.
4r	.	4g\ 4gg'\	.
4r	.	4f\ 4ff'\	.
=211	=211	=211	=211
(2C-/	.	(2c-/	p
4BB-/	.	4B-/	.
=212	=212	=212	=212
4AA-/	.	4A-/	.
4GG-/	.	4G-/	.
4FF/)	.	4F/)	.
=213	=213	=213	=213
(4EE-/ 4GG-/ 4BB-/ 4E-'/	.	4r	.
4r	.	4r	.
4r	.	([4b-\	.
=214	=214	=214	=214
4EE-/) 4GG-/ 4BB-/ 4E-'/	.	4b-\]	.
4r	.	4gg-\	.
4r	.	4ee-\	.
=215	=215	=215	=215
2.r	.	4b-\)	.
.	.	4r	.
.	.	([4b-\	.
=216	=216	=216	=216
4EE-/ 4GG-/ 4BB-/ 4E-'/	.	4b-\]	.
4r	.	4bb-\	.
([4BB-/	.	4gg-\	.
=217	=217	=217	=217
4BB-/]	.	4ee-\)	.
4B-\	.	4r	.
4G-\	.	4r	.
=218	=218	=218	=218
4E-\	.	2.r	.
4C-/	p	.	.
4BB-/	.	.	.
=219	=219	=219	=219
4AA/)	.	4r	.
4r	.	4r	.
4r	.	([4g-/	.
=220	=220	=220	=220
4AA\ 4C\ 4E-\ 4G-\ 4A'\	.	4g-/]	.
4r	.	4ee-\	.
4r	.	4cc\	.
=221	=221	=221	=221
2.r	.	4g-/)	.
.	.	4r	.
.	.	([4g-/	.
=222	=222	=222	=222
4AA\ 4C\ 4E-\ 4G-\ 4A'\	.	4g-/]	.
4r	.	4ccc\	.
([4AA/	.	4gg-\	.
=223	=223	=223	=223
4AA/]	.	4ee-\)	.
4A\	.	4r	.
4G-\	.	4r	.
=224	=224	=224	=224
4E-\	.	2.r	.
4C/	.	.	.
4AA/	.	.	.
=225	=225	=225	=225
(4AA-'/)	.	4r	.
4r	.	(4ff-\	.
4r	.	[4dd-\)	.
=226	=226	=226	=226
4F-\ 4A-\ 4d-'\)	.	4dd-\]	.
4r	.	(4ddd-\	.
4r	.	[4ff-\)	.
=227	=227	=227	=227
4GG'/	.	4ff-\]	.
4r	.	4ff-\	.
4r	.	[4dd-\	.
=228	=228	=228	=228
4G\ 4A\ 4c#\ 4e'\	.	4dd-\]	.
4r	.	(4eee'\	.
4r	.	4aa\)	.
=229	=229	=229	=229
4GG-/	.	4r	.
4r	.	4r	.
4r	.	([4g/	p
=230	=230	=230	=230
4G-\	.	4g/]	.
4f-\	.	4ff-\	.
4d-\	.	4dd-\	.
=231	=231	=231	=231
4B-\	.	4b-\)	.
4r	.	4r	.
4r	.	([4g-/	.
=232	=232	=232	=232
(4G-\	.	4g-/]	.
4a-\	.	4aa-\	.
4f-\	.	4ff-\	.
=233	=233	=233	=233
4B-\)	.	4b-\)	.
4r	.	4r	.
4r	.	[4g-/	.
=234	=234	=234	=234
(4G-\	.	(4g-/]	.
4f-\)	.	4ff-\)	.
4r	.	[4b-\	.
=235	=235	=235	=235
(4B-\	.	(4b-\]	.
4a-\)	.	4aa-\)	.
4r	.	([4f/	.
=236	=236	=236	=236
(4F\	.	4f/]	.
4f\	.	4ff\	.
4d-\	.	4dd-\	.
=237	=237	=237	=237
4B-\)	.	4b-\)	.
4r	.	4r	.
4r	.	([4f/	.
=238	=238	=238	=238
(4F\	.	4f/]	.
4b-\	.	4bb-\	.
4f\	.	4ff\	.
=239	=239	=239	=239
4d-\)	.	4dd-\)	.
4r	.	4r	.
4r	.	[4e/	p
=240	=240	=240	=240
(4E\	.	(4e/]	.
4d-\)	.	4dd-\)	.
4r	.	[4b-\	.
=241	=241	=241	=241
(4B-\	.	(4b-\]	.
4g\)	.	4gg\)	.
4r	.	4b-'\	.
=242	=242	=242	=242
4FF/ 4F'/	.	2cc\ 2ccc\	f
(8c\L	.	.	.
8d\	.	.	.
(8a-\)	.	4b-\ 4bb-'\	.
8d\J	.	.	.
=243	=243	=243	=243
4B-'\)	.	4a-\ 4aa-'\	.
4r	.	4g\ 4gg'\	.
4r	.	4f\ 4ff'\	.
=244	=244	=244	=244
4BBB-/ 4BB-'/	.	4ee-\ 4eee-'\	.
(8G\L	.	4dd\ 4ddd'\	.
8A-\	.	.	.
8B-\	.	4cc\ 4ccc'\	.
8A-\J	.	.	.
=245	=245	=245	=245
4F'\)	.	4b-\ 4bb-'\	.
4r	.	4cc\ 4ccc'\	.
4r	.	4dd\ 4ddd'\	.
=246	=246	=246	=246
4EE-/ 4E-'/	.	4ee-\ 4eee-'\	.
4r	.	4r	.
(4A\	.	4e-/ 4f/ (4cc/	.
=247	=247	=247	=247
[2.B-\)	.	[2.e-/ [2.f/)	p
=248	=248	=248	=248
2B-\]	.	2e-/] 2f/]	.
(4G\	.	4d/ (4b-/	.
=249	=249	=249	=249
4c\)	.	4e-/ 4g'/)	.
4r	.	4r	.
(4A\	.	4e-/ 4g/ 4cc/	.
=250	=250	=250	=250
[2.B-\)	.	[2.e-/ [2.f/	.
=251	=251	=251	=251
2B-\]	.	2e-/] 2f/]	.
(4F\	.	4c/ (4a-/	.
=252	=252	=252	=252
4B-\)	.	4d/ 4f/)	.
4r	.	4r	.
(4G\	.	4d/ 4b-/	.
=253	=253	=253	=253
4c\)	.	4e-/ 4g/	.
4r	.	4r	.
4B-\	.	4e-/ 4g/ 4cc/	.
=254	=254	=254	=254
*	*	*^	*
2.A\	.	(2ee-/	[2.f#\	.
.	.	4dd/	.	.
=255	=255	=255	=255	=255
2.A-\	.	2cc/	2.f#\]	.
.	.	4dd/)	.	.
=256	=256	=256	=256	=256
2.G\ 2.d\	.	(2cc/	2.g\	.
.	.	4b/)	.	.
*	*	*v	*v	*
=257	=257	=257	=257
4r	.	4r	.
4r	.	4r	.
(4A\	.	4e-/ 4g/ 4cc/	.
=258	=258	=258	=258
[2.B-\)	.	[2.e-/ [2.f/	.
=259	=259	=259	=259
2B-\]	.	2e-/] 2f/]	.
(4G\	.	4d/ (4b-/	.
=260	=260	=260	=260
4c\)	.	4e-/ 4g'/)	.
4r	.	4r	.
*clefG2	*clefG2	*	*
4g/	.	4dd\ (4bb-\	pp
=261	=261	=261	=261
4cc\	.	4ee-\ 4gg\)	.
4r	.	4r	.
(4A/	.	4e-/ 4g/ (4cc/	.
=262	=262	=262	=262
[2.B-/)	.	[2.e-/ [2.f/)	.
=263	=263	=263	=263
2B-/]	.	2e-/] 2f/]	.
(4F/	.	4c/ (4a-/	.
=264	=264	=264	=264
4B-/)	.	4d/ 4f/)	.
4r	.	4r	.
4g/	.	4dd\ (4bb-\	pp
=265	=265	=265	=265
4cc\	.	4ee-\ 4gg\)	.
4r	.	4r	.
(4B-/	.	4e-/ 4g/ 4cc/	.
=266	=266	=266	=266
*	*	*^	*
2.A-/	.	(2ee-/	[2.f#\	.
.	.	4dd/	.	.
=267	=267	=267	=267	=267
2.A/)	.	2cc/	2.f#\]	.
.	.	4dd/)	.	.
=268	=268	=268	=268	=268
[2.B-/ (2.e-/	.	2f\	(2b-/	.
*	*	*v	*v	*
.	.	4g\	.
=269	=269	=269	=269
*	*	*^	*
2.B-/] 2.d/)	.	2.b-/)	2f\	.
.	.	.	&(4a-\&)	.
=270	=270	=270	=270	=270
2.B-/ 2.e-/	.	(2gg/	2.g\	.
.	.	4ee-/	.	.
=271	=271	=271	=271	=271
2.A/ [2.e-/	.	2cc/	[2.f#\	.
.	.	4ee-/)	.	.
=272	=272	=272	=272	=272
[2.B-/ (2.e-/]	.	2f#\]	(2b-/	.
*	*	*v	*v	*
.	.	4g\	.
=273	=273	=273	=273
*	*	*^	*
2.B-/] 2.d/)	.	2f\	(2b-/)	.
*	*	*v	*v	*
.	.	4a-\)	.
=274	=274	=274	=274
*	*	*^	*
4e-/	.	&(4g\&)	4b-/	.
*	*	*v	*v	*
4r	.	4r	.
*clefF4	*clefF4	*	*
4BB-'/	.	([4b-\	.
=275	=275	=275	=275
2c\	.	4b-\]	.
.	.	4aa-\	.
4B-'\	.	4ff\	.
=276	=276	=276	=276
4A-'\	.	4dd\)	.
4G'\	.	4r	.
4F'\	.	[4b-\	.
=277	=277	=277	=277
4E-'\	.	4b-\]	.
4D'\	.	4ccc\	.
4C'/	.	4aa-\	.
=278	=278	=278	=278
4BB-'/	.	4dd\	.
4r	.	4r	.
4BB-'/	.	([4b-\	.
=279	=279	=279	=279
2c\	.	4b-\]	.
.	.	4aa-\	.
4B-'\	.	4ff\	.
=280	=280	=280	=280
4A-'\	.	4dd\)	.
4G'\	.	4r	.
4F'\	.	([4b-\	.
=281	=281	=281	=281
4E-'\	.	4b-\]	.
4D'\	.	4ccc\	.
4C'/	.	4aa-\	.
=282	=282	=282	=282
4BB-'/	.	4dd\)	.
4r	.	4r	.
4BB-'/	.	[4b-\	.
=283	=283	=283	=283
4c'\	.	(4b-\]	.
4B-'\	.	4aa-\)	.
4A-'\	.	[4dd\	.
=284	=284	=284	=284
4G'\	.	(4dd\]	.
4F'\	.	4ccc\)	.
4BB-'/	.	[4b-\	.
=285	=285	=285	=285
4c'\	.	(4b-\]	.
4B-'\	.	4aa-\)	.
4A-'\	.	[4dd\	.
=286	=286	=286	=286
4G'\	.	(4dd\]	.
4F'\	.	4ccc\)	.
4BB-'/	.	4b-'\	.
*clefG2	*clefG2	*	*
=287	=287	=287	=287
2c/ 2cc/	.	2cc\ 2ccc\	.
4B-/ 4b-'/	.	4b-\ 4bb-'\	.
=288	=288	=288	=288
4A-/ 4a-'/	.	4a-\ 4aa-'\	.
4G/ 4g'/	.	4g\ 4gg'\	.
4F/ 4f'/	.	4f\ 4ff'\	.
*clefF4	*clefF4	*	*
=289	=289	=289	=289
4E-\ 4e-'\	.	4ee-\ 4eee-'\	.
4D\ 4d'\	.	4dd\ 4ddd'\	.
4C\ 4c'\	.	4cc\ 4ccc'\	.
=290	=290	=290	=290
4BB-\ 4B-'\	.	4b-\ 4bb-'\	.
4AA-\ 4A-'\	.	4a-\ 4aa-'\	.
4GG/ 4G'/	.	4g\ 4gg'\	.
=291	=291	=291	=291
4FF/ 4F'/	.	4f\ 4ff'\	.
4r	.	4r	.
4r	.	4r	.
=292	=292	=292	=292
4BB-\ 4B-'\	.	4b-\ 4bb-'\	.
4r	.	4r	.
4r	.	4r	.
=293	=293	=293	=293
2.r	.	2.r	.
=294	=294	=294	=294
2.r	.	2.r	.
=295	=295	=295	=295
4FFF/ 4FF'/	pp	4F'/	.
4r	.	4r	.
4r	.	4r	.
=296	=296	=296	=296
2.r	.	2.r	.
=297	=297	=297	=297
4BBB-/ 4BB-'/	.	4B-'/	.
4r	.	4r	.
4r	.	4r	.
=298	=298	=298	=298
2.r	.	2.r	.
=299	=299	=299	=299
2.r	.	2.r	.
=300	=300	=300	=300
2.r	.	2.r	.
=301	=301	=301	=301
2.r	.	2.r	.
=302	=302	=302	=302
4r	.	4r	.
8r	.	8r	.
=303	=303	=303	=303
*k[]	*k[]	*k[]	*k[]
*M3/4	*M3/4	*M3/4	*M3/4
2.r	.	4r	.
.	.	4r	.
.	.	(4f#/	.
=304	=304	=304	=304
4r	.	4e/) 4a#/ 4cc#/ 4ee'/	.
(2FF#/ 2F#'/	.	2e/ 2a#/ 2cc#/ 2ee'/	.
=305	=305	=305	=305
2FF##/ 2F##'/	.	2e/ 2a#/ 2cc#/ 2ee'/	.
4GG#/) 4G#'/	.	4e/ 4g#/ 4cc#/ 4ee/	.
=306	=306	=306	=306
[2.AA#\ [2.F#\ [2.A#\	.	[2.e/ [2.g/ [2.cc#/ [2.ee/	.
=307	=307	=307	=307
2AA#\] 2F#\] (2A#\]	.	2e/] 2g/] 2cc#/] (2ee/]	.
4BB\ 4F#\ &(4B\&))	.	4d#/ 4f#/ 4b/ &(4dd#/&))	.
=308	=308	=308	=308
*	*	*^	*
2EE/ 2E/	.	2d#/ (2dd#/	2.g#\	.
*^	*	*	*	*
(4c#/	[4E\ [4G#\	.	4cc#/	.	.
*	*	*	*v	*v	*
=309	=309	=309	=309	=309
4d#/	2.E\] 2.G#\]	.	4dd#/	.
4f#/	.	.	4ff#/	.
4e/)	.	.	4ee/)	.
=310	=310	=310	=310	=310
*	*	*	*^	*
([2d#/	2.F#\	.	(2b/	2.f#\	.
8d#/L]	.	.	8b/L	.	.
8e/J	.	.	8cc#/J	.	.
=311	=311	=311	=311	=311	=311
4c#/)	4F#\	.	4a#/)	4f#\	.
*v	*v	*	*	*	*
*	*	*v	*v	*
4r	.	4r	.
4r	.	([4f#/	.
=312	=312	=312	=312
4r	.	4f#\] 4b#\ 4dd#\ 4ff#'\)	.
2GG#/ (2G#'/	.	2f#\ 2b#\ 2dd#\ (2ff#'\	.
=313	=313	=313	=313
2AA\ 2A'\	.	2f#\ 2b#\ 2dd#\ 2ff#'\	.
4AA#\ 4A#'\)	.	4f#\ 4a#\ 4dd#\ 4ff#'\)	.
=314	=314	=314	=314
2.BB#\ [2.G#\ (2.B#\	.	2.f#\ 2.a\ 2.dd#\ (2.ff#\	.
=315	=315	=315	=315
&(4C#\&) 4G#\] 4c#\)	.	&(4e#/&) 4g#/ 4cc#/ 4ee#/)	.
4r	.	4r	.
4r	.	4e/ 4g#/ 4cc#/ 4ee/	.
=316	=316	=316	=316
2.FF#/ 2.F#/	.	2.d/ 2.a/ 2.dd/	.
=317	=317	=317	=317
*^	*	*	*
(4d/	2.F#\ 2.A\	.	(4dd\	.
4f#/	.	.	4ff#\	.
4a/)	.	.	4aa\)	.
=318	=318	=318	=318	=318
*	*	*	*^	*
[2e/	[2.G#\	.	(2cc#/	2g#\	.
*	*	*	*v	*v	*
8e/L]	.	.	8cc#/L	.
8f#/J	.	.	8dd#/J	.
=319	=319	=319	=319	=319
*	*	*	*^	*
4d#/	4G#\]	.	4b#/)	4g#\	.
*v	*v	*	*	*	*
*	*	*v	*v	*
4r	.	4r	.
4r	.	[4g#/	.
=320	=320	=320	=320
*	*	*^	*
(8C#\L	.	2.ee/	2.g#\]	.
8G#\	.	.	.	.
8c#\	.	.	.	.
8e\	.	.	.	.
8c#\	.	.	.	.
8G#\J)	.	.	.	.
=321	=321	=321	=321	=321
(8D#\L	.	(2dd#/	2.f##\	.
8A#\	.	.	.	.
8c#\	.	.	.	.
8d#\	.	.	.	.
8c#\	.	4cc#/)	.	.
8A#\J)	.	.	.	.
=322	=322	=322	=322	=322
(8GG#\L	.	(2b#/	2.g#\	.
8D#\	.	.	.	.
8G#\	.	.	.	.
8B#\	.	.	.	.
8G#\	.	4dd#/)	.	.
8D#\J)	.	.	.	.
*	*	*v	*v	*
=323	=323	=323	=323
(8GG#\L	.	4r	.
8D#\	.	.	.
8G#\	.	4r	.
8B#\	.	.	.
8G#\	.	(4g#/	.
8D#\J)	.	.	.
=324	=324	=324	=324
*	*	*^	*
8BB#\L	.	2.aa/)	2.dd#\	.
8F#\	.	.	.	.
8G#\	.	.	.	.
8d#\	.	.	.	.
8G#\	.	.	.	.
8F#\J	.	.	.	.
=325	=325	=325	=325	=325
8GG#\L	.	(2gg#/	2.b#\	.
8D#\	.	.	.	.
8G#\	.	.	.	.
8d#\	.	.	.	.
8G#\	.	4ff#/)	.	.
8D#\J	.	.	.	.
=326	=326	=326	=326	=326
(8C#\L	.	(2ff#/	2.cc#\	.
8G#\	.	.	.	.
8c#\	.	.	.	.
8e\	.	.	.	.
8c#\	.	4ee/)	.	.
8G#\J)	.	.	.	.
=327	=327	=327	=327	=327
(8D#\L	.	(2dd#/	2.f##\	.
8A#\	.	.	.	.
8c#\	.	.	.	.
8d#\	.	.	.	.
8c#\	.	4cc#/)	.	.
8A#\J)	.	.	.	.
=328	=328	=328	=328	=328
8GG#\L	.	(2b#/	2.g#\	.
8D#\	.	.	.	.
8G#\	.	.	.	.
8B#\	.	.	.	.
8G#\	.	4dd#/)	.	.
8D#\J	.	.	.	.
*	*	*v	*v	*
=329	=329	=329	=329
(8GG#\L	.	4r	.
8E\	.	.	.
8F##\	.	4r	.
8A#\	.	.	.
*	*	*^	*
8F##\	.	4cc#/	4f##\	.
8E\J)	.	.	.	.
=330	=330	=330	=330	=330
8GG#\L	.	2b#/	2.g#\	.
8D#\	.	.	.	.
8G#\	.	.	.	.
8B#\	.	.	.	.
8G#\	.	4dd#/	.	.
8D#\J	.	.	.	.
*	*	*v	*v	*
=331	=331	=331	=331
(8GG#\L	.	4r	.
8E\	.	.	.
8F##\	.	4r	.
8A#\	.	.	.
*	*	*^	*
8F##\	.	4cc#/	4f##\	.
8E\J)	.	.	.	.
=332	=332	=332	=332	=332
(8GG#\L	.	(2b#/	2.g#\	.
8D#\	.	.	.	.
8G#\	.	.	.	.
8B#\	.	.	.	.
8G#\	.	4dd#/)	.	.
8D#\J)	.	.	.	.
*	*	*v	*v	*
=333	=333	=333	=333
8GG#\L	.	4r	.
8D#\	.	.	.
8G#\	.	4r	.
8B\	.	.	.
8G#\	.	4g#\ 4b\ 4dd#'\	.
8D#\J	.	.	.
=334	=334	=334	=334
(8FF#\L	.	4r	.
8D#\	.	.	.
8F#\	.	4r	.
8B\	.	.	.
8F#\	.	4a\ 4b\ 4dd#'\	.
8D#\J)	.	.	.
=335	=335	=335	=335
(8FF#\L	.	4r	.
8D#\	.	.	.
8F#\	.	4r	.
8B#\	.	.	.
8F#\	.	4a\ 4b#\ (4dd#'\	.
8D#\J)	.	.	.
=336	=336	=336	=336
(8FF#\L	.	4r	.
8E\	.	.	.
8F#\	.	4r	.
8c#\	.	.	.
8F#\	.	4a#\ 4cc#\ 4ee'\	.
8E\J)	.	.	.
=337	=337	=337	=337
(8FF#\L	.	4r	.
8E\	.	.	.
8F#\	.	4r	.
8c#\	.	.	.
8F#\	.	4a#\ 4cc#\ 4ee'\)	.
8E\J)	.	.	.
=338	=338	=338	=338
(8FFF#/L	.	4r	.
8FF#/	.	.	.
8AA#/	.	4r	.
8C#/	.	.	.
8E/	.	4a#\ 4cc#\ 4ee\ 4ff#\ 4aa#'\	.
8F#/J	.	.	.
*clefG2	*clefG2	*	*
=339	=339	=339	=339
8A#/L	.	4r	.
8c#/	.	.	.
8e/	.	4r	.
8f#/	.	.	.
8a#/J)	.	4cc#\ 4ee\ 4ff#\ 4aa#\ 4ccc#'\	.
8r	.	.	.
*clefF4	*clefF4	*	*
=340	=340	=340	=340
4FF#/ 4F#'/	.	4ee\ 4aa#\ 4ccc#\ 4eee'\	ff
2FF##/ 2F##/	.	2ee\ 2aa#\ 2ccc\ 2eee\	.
=341	=341	=341	=341
2GG#/ 2G#/	.	2ee\ 2gg#\ 2ccc#\ 2eee\	.
4AA\ 4A\	.	4ee\ 4gg\ 4ccc#\ 4eee\	.
=342	=342	=342	=342
[2.AA#\ [2.F#\ [2.A#\	.	[2.ee\ [2.ff#\ [2.ccc#\ [2.eee\	.
=343	=343	=343	=343
2AA#\] 2F#\] (2A#\]	.	2ee\] 2ff#\] 2ccc#\] (2eee\]	.
&(4BB\&) 4F#\ 4B\)	.	4dd#\ 4ff#\ &(4bb\&) 4ddd#\)	.
=344	=344	=344	=344
*	*	*^	*
2EE/ 2E/	.	2.gg#/	2dd#\ (2ddd#\	.
*^	*	*	*	*
4c#/	[4E\ [4G#\	.	.	4cc#\ 4ccc#\	.
*	*	*	*v	*v	*
=345	=345	=345	=345	=345
4d#/	2.E\] 2.G#\]	.	4dd#\ 4ddd#\	.
4f#/	.	.	4ff#\ 4fff#\	.
4e/	.	.	4ee\ 4eee\)	.
=346	=346	=346	=346	=346
*	*	*	*^	*
([2d#/	2.F#\	.	2.ff#/	[2b\ (2bb\	.
8d#/L]	.	.	.	8b\] 8bb\L	.
8e/J	.	.	.	8cc#\ 8ccc#\J	.
*	*	*	*v	*v	*
=347	=347	=347	=347	=347
4c#/)	4F#\	.	4a#\ 4ff#\ 4aa#\)	.
*v	*v	*	*	*
4r	.	4r	.
4r	.	4f#\ (4ff#\	.
=348	=348	=348	=348
4GG#/ 4G#'/	.	4ff#\ 4bb#\ 4ddd#\ 4fff#'\)	.
2AA\ 2A\	.	2ff#\ 2bb\ 2ddd#\ 2fff#\	.
=349	=349	=349	=349
2AA#\ 2A#\	.	2ff#\ 2aa#\ 2ddd#\ 2fff#\	.
4BB\ 4B\	.	4ff#\ 4aa\ 4ddd#\ 4fff#\	.
=350	=350	=350	=350
2.BB#\ [2.G#\ (2.B#\	.	2.ff#\ [2.gg#\ 2.ddd#\ (2.fff#\	.
=351	=351	=351	=351
&(4C#\&) 4G#\] 4c#\)	.	4ee#\ 4gg#\] &(4ccc#\&) 4eee#\)	.
4r	.	4r	.
4r	.	4ee\ 4gg#\ 4ccc#\ 4eee\	.
=352	=352	=352	=352
*	*	*^	*
2.FF#/ 2.F#/	.	2.ddd/	2.dd\ 2.aa\	.
*clefG2	*clefG2	*	*	*
=353	=353	=353	=353	=353
*^	*	*	*	*
(4d/	2.F#\ 2.A\	.	(4ddd/	4dd\	.
4f#/	.	.	4fff#/	4ff#\	.
4a/)	.	.	4aaa/)	4aa\	.
=354	=354	=354	=354	=354	=354
[2e/	2.G#\	.	(2ccc#/	[2cc#\ [2gg#\	.
8e/L]	.	.	8ccc#/L	8cc#\] 8gg#\L]	.
8f#/J	.	.	8ddd#/J	8dd#\J	.
=355	=355	=355	=355	=355	=355
4d#/	4G#\	.	4b#\ 4gg#\	4bb#/)	.
*v	*v	*	*	*	*
*	*	*v	*v	*
4r	.	4r	.
4r	.	[4gg#\	.
*clefF4	*clefF4	*	*
=356	=356	=356	=356
(8C#\L	.	2.ee\ 2.gg#\] 2.eee\	f
8G#\	.	.	.
8c#\	.	.	.
8e\	.	.	.
8c#\	.	.	.
8G#\J)	.	.	.
=357	=357	=357	=357
*	*	*^	*
(8D#\L	.	2.ff##/	2dd#\ 2ddd#\	.
8A#\	.	.	.	.
8c#\	.	.	.	.
8d#\	.	.	.	.
8c#\	.	.	4cc#\ 4ccc#\	.
8A#\J)	.	.	.	.
=358	=358	=358	=358	=358
8GG#\L	.	2.gg#/	2b#\ (2bb#\	.
8D#\	.	.	.	.
8G#\	.	.	.	.
8B#\	.	.	.	.
8G#\	.	.	4dd#\ 4ddd#\)	.
(8D#\J	.	.	.	.
*	*	*v	*v	*
=359	=359	=359	=359
8GG#\L	.	4r	.
8D#\	.	.	.
8G#\	.	4r	.
8B#\	.	.	.
8G#\	.	(4g#/	p
8D#\J)	.	.	.
=360	=360	=360	=360
*	*	*^	*
(8EE\L	.	2.gg#/)	2.b\	.
8BB\	.	.	.	.
8E\	.	.	.	.
8G#\	.	.	.	.
8B\	.	.	.	.
8e\J)	.	.	.	.
=361	=361	=361	=361	=361
(8F#\L	.	(2ff#/	2.a#\	.
8c#\	.	.	.	.
8e\	.	.	.	.
8f#\	.	.	.	.
8e\	.	4ee/)	.	.
8c#\J)	.	.	.	.
=362	=362	=362	=362	=362
(8B\L	.	2dd#/	2.b\	.
8d#\	.	.	.	.
8f#\	.	.	.	.
8b\	.	.	.	.
8f#\	.	4ff#/	.	.
8d#\J	.	.	.	.
*	*	*v	*v	*
=363	=363	=363	=363
8B\L	.	4r	.
8F#\	.	.	.
8D#\	.	4r	.
8BB\	.	.	.
8D#\	.	(4b\	.
8F#\J)	.	.	.
=364	=364	=364	=364
*	*	*^	*
8BB#\L	.	2.aa/)	2.dd#\	mp
8D#\	.	.	.	.
8F#\	.	.	.	.
8G#\	.	.	.	.
8F#\	.	.	.	.
8D#\J	.	.	.	.
=365	=365	=365	=365	=365
8GG#\L	.	2gg#/	2.b#\	.
8D#\	.	.	.	.
8G#\	.	.	.	.
8d#\	.	.	.	.
8G#\	.	4ff#/	.	.
8D#\J	.	.	.	.
=366	=366	=366	=366	=366
(8C#\L	.	(2ff#/	2.cc#\	.
8E\	.	.	.	.
8G#\	.	.	.	.
8c#\	.	.	.	.
8G#\	.	4ee/)	.	.
8E\J)	.	.	.	.
=367	=367	=367	=367	=367
8EE\L	.	(2dd#/	2.g#\	.
8E\	.	.	.	.
8G#\	.	.	.	.
8c#\	.	.	.	.
8G#\	.	4cc#/)	.	.
8E\J	.	.	.	.
=368	=368	=368	=368	=368
(8EE#\L	.	2.b/	2.d\	.
8BB\	.	.	.	.
8D\	.	.	.	.
8G#\	.	.	.	.
8D\	.	.	.	.
8BB\J)	.	.	.	.
=369	=369	=369	=369	=369
(8EE#\L	.	2a#/	2.d#\	.
8BB\	.	.	.	.
8D\	.	.	.	.
8G#\	.	.	.	.
8D\	.	4g#/	.	.
8BB\J)	.	.	.	.
=370	=370	=370	=370	=370
(8FF#/L	.	(2f#/	2.d#\	.
8BB/	.	.	.	.
8D#/	.	.	.	.
8F#/	.	.	.	.
8D#/	.	4b/	.	.
(8BB/J)	.	.	.	.
=371	=371	=371	=371	=371
8FF#\L	.	2cc#/	2.e\	.
8C#\	.	.	.	.
8E\	.	.	.	.
8A#\	.	.	.	.
8E\	.	4f#/	.	.
8C#\J)	.	.	.	.
=372	=372	=372	=372	=372
(8BB\L	.	4d#\	4dd#/)	.
8D#\	.	.	.	.
*	*	*v	*v	*
8F#\	.	4r	.
8B\	.	.	.
8F#\	.	(4dd#\	.
8D#\J)	.	.	.
=373	=373	=373	=373
8EE\L	.	2.a\ 2.ff#\)	.
8BB#\	.	.	.
8D#\	.	.	.
8A\	.	.	.
8D#\	.	.	.
8BB#\J	.	.	.
=374	=374	=374	=374
(8EE\L	.	2a#\ (2ff#\	.
8BB#\	.	.	.
8D#\	.	.	.
8A\	.	.	.
8E\	.	4g#\ 4ee\	.
8C#\J)	.	.	.
=375	=375	=375	=375
8EE\L	.	2f#/ 2dd#/	.
8BB#\	.	.	.
8D#\	.	.	.
8A\	.	.	.
8E\	.	4e/ 4cc#/)	.
8C#\J	.	.	.
=376	=376	=376	=376
(8EE#\L	.	[2.d/ (2.b/	.
8BB\	.	.	.
8D\	.	.	.
8G#\	.	.	.
8D\	.	.	.
8BB\J)	.	.	.
=377	=377	=377	=377
*	*	*^	*
(8EE#\L	.	2a#/	2.d\]	.
8BB\	.	.	.	.
8D\	.	.	.	.
8G#\	.	.	.	.
8D\	.	4g#/)	.	.
8BB\J)	.	.	.	.
=378	=378	=378	=378	=378
(8FF#/L	.	(2f#/	2.d#\	.
8BB/	.	.	.	.
8D#/	.	.	.	.
8F#/	.	.	.	.
8D#/	.	4b/	.	.
8BB/J)	.	.	.	.
=379	=379	=379	=379	=379
(8FF#\L	.	2cc#/	2.e\	.
8C#\	.	.	.	.
8E\	.	.	.	.
8A#\	.	.	.	.
8E\	.	4dd#/)	.	.
8C#\J	.	.	.	.
=380	=380	=380	=380	=380
(8BB\L)	.	2b/	2d#\	.
8D#\	.	.	.	.
8B\	.	.	.	.
8F#\	.	.	.	.
*	*	*v	*v	*
8D#\	.	4r	.
8BB\J	.	.	.
=381	=381	=381	=381
8BBB'/)	.	4r	.
8r	.	.	.
4r	.	4r	.
4r	.	(4B/	p
=382	=382	=382	=382
2.r	.	(2.a/)	.
=383	=383	=383	=383
4r	.	2f#/	.
4r	.	.	.
(4BB/	.	4e/	.
=384	=384	=384	=384
2.A\	.	2d#/	.
.	.	4f#/)	.
=385	=385	=385	=385
2F#\	.	4r	.
.	.	4r	.
4E\	.	(4B/	.
=386	=386	=386	=386
2D#\	.	2.cc#\	.
4F#\)	.	.	.
=387	=387	=387	=387
4r	.	2a/	.
4r	.	.	.
(4BB/	.	4g#/	.
=388	=388	=388	=388
2.c#\	.	2f#/	.
.	.	4a/)	.
=389	=389	=389	=389
2A\	.	4r	.
.	.	4r	.
4G#\	.	(4e/	.
=390	=390	=390	=390
2F#\	.	2d#/	.
4A\)	.	4f#/)	.
=391	=391	=391	=391
4r	.	4r	.
4r	.	4r	.
(4E\	.	4c#/	.
=392	=392	=392	=392
2D#\	.	[2.c/	.
4F#\)	.	.	.
=393	=393	=393	=393
4r	.	2.c/]	.
4r	.	.	.
(4D#\	.	.	.
=394	=394	=394	=394
2D\	.	[2.c/	.
4F#\)	.	.	.
=395	=395	=395	=395
2.r	.	2c/]	.
*	*	*clefF4	*clefF4
.	.	([4c\	.
=396	=396	=396	=396
(8GG/L	.	[2.F#\ 2.c\_ (2.e\)	p
8D/	.	.	.
8GG/	.	.	.
8D/	.	.	.
8GG/	.	.	.
8D/J	.	.	.
=397	=397	=397	=397
*	*	*^	*
8GG/L	.	2d/	2.F#\] 2.c\]	.
8D/	.	.	.	.
8GG/	.	.	.	.
8D/	.	.	.	.
8GG/	.	4c/	.	.
8D/J	.	.	.	.
=398	=398	=398	=398	=398
8GG/L	.	2B/	2.G\	.
8D/	.	.	.	.
8GG/	.	.	.	.
8D/	.	.	.	.
8GG/	.	4d/)	.	.
8D/J	.	.	.	.
*	*	*v	*v	*
=399	=399	=399	=399
8GG/L	.	4r	.
8D/	.	.	.
8GG/	.	4r	.
8D/	.	.	.
8GG/	.	(4G\	.
8D/J)	.	.	.
=400	=400	=400	=400
*	*	*^	*
8GG/L	.	2.e/)	2.F#\ 2.c\	.
8D#/	.	.	.	.
8GG/	.	.	.	.
8D#/	.	.	.	.
8GG/	.	.	.	.
8D#/J	.	.	.	.
=401	=401	=401	=401	=401
8GG/L	.	2d/	2.F#\ 2.c\	.
8D/	.	.	.	.
8GG/	.	.	.	.
8D/	.	.	.	.
8GG/	.	4c/	.	.
8D/J	.	.	.	.
=402	=402	=402	=402	=402
8GG/L	.	2B/	2.G\	.
8D/	.	.	.	.
8GG/	.	.	.	.
8D/	.	.	.	.
8GG/	.	4d/	.	.
8D/J	.	.	.	.
*	*	*v	*v	*
=403	=403	=403	=403
8GG/L	.	4r	.
8D/	.	.	.
8GG/	.	4r	.
8D/	.	.	.
8GG/	.	4B\ (4d'\	.
8D/J	.	.	.
=404	=404	=404	=404
(8GG/L	.	4r	.
8C#/	.	.	.
8GG/	.	4r	.
8C#/	.	.	.
8GG/	.	4B\ 4e'\	.
8C#/J	.	.	.
=405	=405	=405	=405
8GG/L	.	4r	.
8C#/	.	.	.
8GG/	.	4r	.
8C#/	.	.	.
8GG/	.	4B\ 4e#'\)	.
8C#/J)	.	.	.
=406	=406	=406	=406
8FF#/	.	8A#\ 8f#\	f
8r	.	8r	.
4r	.	4r	.
8r	.	8r	.
8FFF#/	.	(8FF#/	f
=407	=407	=407	=407
8AAA#/L	.	8AA#\L	.
8CC#/	.	8C#\	.
8EE/	.	8E\	.
8FF#/	.	8F#\	.
8AA#/	.	8A#\	.
8C#/J	.	8c#\J	.
=408	=408	=408	=408
8E'\	.	8e'\)	.
8r	.	8r	.
4r	.	4r	.
8r	.	8r	.
*	*	*clefG2	*clefG2
(8FF#/	.	(8F#/	.
=409	=409	=409	=409
8AA#\L	.	8A#'/L	.
8C#\	.	8c#/	.
8E\	.	8e/	.
8F#\	.	8f#/	.
8A#\	.	8a#/	.
8c#\J	.	8cc#/J	.
=410	=410	=410	=410
8e'\)	.	8ee'\)	.
8r	.	8r	.
4r	.	4r	.
8r	.	8r	.
(8e\	.	(8f#/	.
=411	=411	=411	=411
8c#\L	.	8a#\L	.
8A#\	.	8cc#\	.
8F#\	.	8ee\	.
8E\	.	8ff#\	.
8C#\	.	8aa#\	.
8AA#\J)	.	8ccc#\J)	.
=412	=412	=412	=412
4FFF#/ 4FF#'/	.	4ee\ 4aa#\ 4eee'\	.
2FFF##/ 2FF##/	.	2ee\ 2aa#\ 2ccc#\ 2eee\	.
=413	=413	=413	=413
2GGG#/ 2GG#/	.	2ee\ 2gg#\ 2ccc#\ 2eee\	.
4AAA/ 4AA/	.	4ee\ 4gg\ 4ccc#\ 4eee\	.
=414	=414	=414	=414
[2.AAA#/ [2.FF#/ [2.AA#/	.	2.ee\ 2.ff#\ 2.ccc#\ (2.eee\	.
=415	=415	=415	=415
2AAA#/] 2FF#/_ 2AA#/]	.	2r	.
4BBB/ 4FF#/] 4BB/	.	4dd#\ 4ff#\ &(4bb\&) 4ddd#\)	.
=416	=416	=416	=416
*	*	*^	*
4EEE/ 4EE/	.	2.gg#/	2dd#\ 2ddd#\	.
4r	.	.	.	.
*^	*	*	*	*
[4E\ [4G#\	(4c#/	.	.	4cc#\ 4ccc#\	.
*	*	*	*v	*v	*
=417	=417	=417	=417	=417
4d#/)	2.E\] 2.G#\]	.	4dd#\ 4ddd#\	.
4f#/	.	.	4ff#\ 4fff#\	.
4e/	.	.	4ee\ 4eee\	.
=418	=418	=418	=418	=418
*	*	*	*^	*
([2d#/	2.F#\	.	2.ff#/	[2b\ (2bb\	.
8d#/L]	.	.	.	8b\] 8bb\L	.
8e/J)	.	.	.	8cc#\ 8ccc#\J)	.
*	*	*	*v	*v	*
=419	=419	=419	=419	=419
4c#/	4F#\	.	4a#\ 4ff#\ 4aa#\	.
*v	*v	*	*	*
4r	.	4r	.
4r	.	4f#\ (4ff#\	.
=420	=420	=420	=420
4GGG#/ 4GG#'/	.	4ff#\ 4bb#\ 4ddd#\ 4fff#'\)	.
2AAA/ 2AA/	.	2ff#\ 2bb\ 2ddd#\ 2fff#\	.
=421	=421	=421	=421
2AAA#/ 2AA#/	.	2ff#\ 2aa#\ 2ddd#\ 2fff#\	.
4BBB/ 4BB/	.	4ff#\ 4aa\ 4ddd#\ 4fff#\	.
=422	=422	=422	=422
2.BBB#/ [2.GG#/ (2.BB#/	.	2.ff#\ 2.gg#\ 2.ddd#\ (2.fff#\	.
=423	=423	=423	=423
&(4CC#/&) 4GG#/] 4C#/)	.	4ee#\ 4gg#\ 4ccc#\ 4eee#\)	.
4r	.	4r	.
4r	.	4cc#\ (4ccc#\	.
=424	=424	=424	=424
4BBB-/ 4BB-'/	.	4a-\ 4dd\ 4ff\ 4aa-'\)	.
2BBB/ 2BB/	.	2a-\ 2dd-\ 2ff\ 2aa-\	.
=425	=425	=425	=425
2CC/ 2C/	.	2a-\ 2cc\ 2ff\ 2aa-\	.
4DD-/ 4D-/	.	4a-\ 4cc-\ 4ff\ 4aa-\	.
=426	=426	=426	=426
2.DD/ [2.BB-/ (2.D/	.	2.a-\ [2.b-\ 2.ff\ (2.aa-\	.
=427	=427	=427	=427
&(4EE-/&) 4BB-/] 4E-/)	.	4g\ 4b-\] 4ee-\ &(4gg\&))	.
4r	.	4r	.
4r	.	4e-/ (4ee-/	.
=428	=428	=428	=428
4BBB/ 4BB'/	.	4a\ 4b\ 4dd#\ 4ff#\ 4bb'\)	.
2DD#/ 2D#/	.	2a\ 2b\ 2dd#\ 2ff#\ 2bb\	.
=429	=429	=429	=429
2FF#/ 2F#/	.	2a\ 2b\ 2dd#\ 2ff#\ 2bb\	.
4BB\ 4B'\	.	4a\ 4b\ 4dd#\ 4ff#\ 4bb'\	.
=430	=430	=430	=430
4D#\ 4d#'\	.	4a\ 4b\ 4dd#\ 4ff#\ 4bb'\	.
2F#\ 2f#\	.	2dd#\ 2ff#\ 2bb\	.
*clefG2	*clefG2	*	*
=431	=431	=431	=431
2B/ 2b/	.	2a\ 2b\ 2dd#\ 2ff#\ 2bb\	.
4d#/ 4dd#'/	.	4a\ 4b\ 4dd#\ 4ff#\ 4bb'\	.
=432	=432	=432	=432
8e/ 8g#/ 8b/ 8ee'/	.	8g#\ 8ee\ 8gg#\ 8bb'\	.
8r	.	8r	.
8r	.	8r	.
*clefF4	*clefF4	*	*
(8AA#/L	.	(8A#/L	.
8BB/	.	8B/	.
8GG#/J	.	8G#/J	.
=433	=433	=433	=433
8E'\)	.	8e'/)	.
8r	.	8r	.
4r	.	4r	.
4r	.	4r	.
*clefG2	*clefG2	*	*
=434	=434	=434	=434
8e#/ 8g#/ 8b/ 8dd/ 8ee#'/	.	8g#\ 8dd\ 8ee#\ 8gg#\ 8bb'\	.
8r	.	8r	.
8r	.	8r	.
*clefF4	*clefF4	*	*
(8AA#/L	.	(8A#/L	.
8BB/	.	8B/	.
8GG#/J	.	8G#/J	.
=435	=435	=435	=435
8E#'\)	.	8e#'/)	.
8r	.	8r	.
4r	.	4r	.
4r	.	4r	.
=436	=436	=436	=436
4FFF#/ 4FF#'/	.	4ff#\ 4bb\ 4ddd#\ 4fff#'\	.
2FFF#/ 2FF#/	.	2ee\ 2aa#\ 2ccc#\ 2eee\	.
=437	=437	=437	=437
2FFF##/ 2FF##/	.	2cc#\ 2ee\ 2aa#\ 2ccc#\	.
4GGG#/ 4GG#'/	.	4g#\ 4cc#\ 4ee\ 4gg#'\	.
=438	=438	=438	=438
[2.AAA/ [2.AA/	.	2.g\ 2.cc#\ 2.ee\ (2.gg\	.
=439	=439	=439	=439
2AAA/] 2AA/]	.	4f#\ 4dd#\ 4ff#\)	.
.	.	4r	.
4r	.	4f#\ 4cc#\ 4ff#\	.
=440	=440	=440	=440
*	*	*^	*
2GGG/ 2GG'/	.	2.b/	2f#\ (2ff#\	.
4r	.	.	4d#\ 4dd#\	.
*	*	*v	*v	*
=441	=441	=441	=441
2G\ 2B'\	.	4e/ 4ee/	.
.	.	4a\ 4aa\	.
4r	.	4g\ 4gg\)	.
=442	=442	=442	=442
2FFF#/ 2FF#'/	.	4r	.
.	.	4r	.
4r	.	4e#/ (4ee#/	.
=443	=443	=443	=443
2F#\ 2B\ 2d'\	.	4f#\ 4ff#\	.
.	.	4cc#\ 4ccc#\	.
4r	.	4b\ 4bb\)	.
=444	=444	=444	=444
2EEE#/ 2EE#'/	.	4r	.
.	.	4r	.
4r	.	4f##\ (4ff##\	.
=445	=445	=445	=445
2E#\ 2G#\ 2B\ 2d\ 2e#'\	.	4g#\ 4gg#\	.
.	.	4ee\ 4eee\	.
4r	.	4dd\ 4ddd\)	.
=446	=446	=446	=446
2E#\ 2G#\ 2B\ 2d\ 2e#'\	.	4b\ (4bb\	ff
.	.	4aa#\ 4aaa#\	.
4r	.	4gg#\ 4ggg#\)	.
=447	=447	=447	=447
2E#\ 2G#\ 2B\ 2d\ 2e#'\	.	4b\ (4bb\	.
.	.	4aa#\ 4aaa#\	.
4r	.	4gg#\ 4ggg#\)	.
=448	=448	=448	=448
4F#\ 4B\ 4d#\ 4f#\	.	4ff#\ 4bb\ 4ddd#\ 4fff#\	.
4r	.	4r	.
4EEE#/ 4EE#/	.	4r	.
=449	=449	=449	=449
4FFF#/ 4FF#/	.	2.r	.
4BB\ 4B\	.	.	.
[4GG#/ [4G#/	.	.	.
=450	=450	=450	=450
2GG#/] 2G#/]	.	4a#\ 4cc#\ 4ee\ 4ff#\ 4aa#\	.
.	.	4r	.
(4EEE#/ 4EE#/	.	4r	.
=451	=451	=451	=451
4FFF#/ 4FF#/	.	2.r	.
4GG#/ 4G#/	.	.	.
4FF#/) 4F#/	.	.	.
=452	=452	=452	=452
*^	*	*	*
2.BB/	(4BBB\	.	2.b\ 2.dd#\ 2.ff#\ 2.bb\	.
.	4GG#\	.	.	.
.	4FF#\)	.	.	.
*v	*v	*	*	*
=453	=453	=453	=453
(4BBB/	.	4r	.
4GG#/	.	8r	.
*	*	*clefF4	*clefF4
.	.	(8E#\L	.
4FF#/)	.	8F#\	.
.	.	8D#\J	.
=454	=454	=454	=454
4BBB/	.	8A'\)	.
.	.	8r	.
4GG#/	.	8r	.
*	*	*clefG2	*clefG2
.	.	(8e#/L	.
4FF#/	.	8f#/	.
.	.	8d#/J	.
=455	=455	=455	=455
4BBB/	.	8a'/)	.
.	.	8r	.
4GG#/	.	8r	.
.	.	(8ee#\L	.
4FF#/	.	8ff#\	.
.	.	8dd#\J	.
=456	=456	=456	=456
(4BBB/	.	8aa\L	.
.	.	8ff#\	.
4GG#/	.	8dd#\	.
.	.	8a\	.
[4FF#/)	.	8f#\	.
.	.	8d#\J	.
=457	=457	=457	=457
2FF#/]	.	8A'/)	.
.	.	8r	.
.	.	8r	.
*	*	*clefF4	*clefF4
.	.	(8E#\L	.
(4BBB/	.	8F#\	.
.	.	8D#\J	.
=458	=458	=458	=458
4CC/	.	8A'\)	.
.	.	8r	.
4AA-/	.	8r	.
*	*	*clefG2	*clefG2
.	.	(8e/L	.
4GG-/)	.	8f#/	.
.	.	8d#/J	.
=459	=459	=459	=459
4CC/	.	8a'/)	.
.	.	8r	.
4AA-/	.	8r	.
.	.	(8ff\L	.
4GG-/	.	8gg-\	.
.	.	8ee-\J	.
=460	=460	=460	=460
(4CC/	.	8aa\L	.
.	.	8gg-\	.
4AA-/	.	8ee-\	.
.	.	8a\	.
4GG-/)	.	8g-\	.
.	.	8f\J	.
*	*	*clefF4	*clefF4
=461	=461	=461	=461
4CC/	.	8e-\L	.
.	.	8A\	.
4AA-/	.	8G-\	.
.	.	8F\	.
4GG-/	.	8G-\	.
.	.	8E-\J	.
=462	=462	=462	=462
*k[]	*k[]	*k[]	*k[]
2GG-/	.	8D\ 8B-'\)	.
.	.	8r	.
.	.	4r	.
(4BBB-/	.	4r	.
=463	=463	=463	=463
4FF/	.	2.r	.
4C-/	.	.	.
4BB-/)	.	.	.
*	*	*clefG2	*clefG2
=464	=464	=464	=464
2BB-'/	.	4r	.
.	.	8r	.
.	.	(8ff\L	.
(4BBB-/	.	8gg-\	.
.	.	8ee-\J	.
=465	=465	=465	=465
4FF/	.	8dd\ 8bb-'\)	.
.	.	8r	.
4C-/	.	4r	.
[4BB-/)	.	4r	.
=466	=466	=466	=466
2BB-/]	.	4r	.
.	.	8r	.
.	.	(8ff\L	.
4BBB-/	.	8gg-\	.
.	.	8ee-\J	.
=467	=467	=467	=467
4FF/	.	8dd\ 8bb-'\)	.
.	.	8r	.
4C-/	.	4r	.
[4BB-/	.	4r	.
=468	=468	=468	=468
2BB-/]	.	4r	.
.	.	8r	.
.	.	(8ff\L	.
(4BBB-/	.	8gg-\	.
.	.	[8ee-\J	.
=469	=469	=469	=469
*^	*	*	*
4r	2AA-\)	.	8ee-\] 8ccc-'\)	.
.	.	.	8r	.
[2E-/	.	.	4r	.
.	4GG-\	.	8ee-\ 8bb-'\	.
.	.	.	8r	.
=470	=470	=470	=470	=470
4E-/]	2FF\	.	8cc-\ 8ee-\ 8aa-'\	.
.	.	.	8r	.
[2E-/	.	.	4r	.
.	4EE-\	.	8b-\ 8ee-\ 8gg-'\	.
.	.	.	8r	.
=471	=471	=471	=471	=471
4E-/]	2DD-\	.	8b-\ 8ff'\	.
.	.	.	8r	.
2E-/	.	.	4r	.
.	4CC\	.	8a\ 8ee-'\	.
.	.	.	8r	.
=472	=472	=472	=472	=472
8BB-'/	8BBB-\	.	8b-\ 8dd'\	.
*v	*v	*	*	*
8r	.	8r	.
8r	.	4r	.
8EE/L	f	.	.
8FF/	.	4r	.
8DD-/J	.	.	.
=473	=473	=473	=473
[2.BBB-\	.	4r	.
.	.	8r	.
.	.	8E/L	.
.	.	8F/	.
.	.	8D/J	.
=474	=474	=474	=474
*^	*	*	*
4r	2.BBB-\_ [2.BB-\	.	4r	.
8r	.	.	8r	.
8d/L	.	.	8ff/L	f
8e-/	.	.	8gg-/	.
8g-/J	.	.	8ee-/J	.
*v	*v	*	*	*
=475	=475	=475	=475
*	*	*^	*
2.BBB-\_ 2.BB-\_	.	8dd/ 8bb-'/	8b-'\	.
.	.	8r	8r	.
.	.	8r	8r	.
.	.	8ff/L	8d\L	.
.	.	8gg-/	8e-\	.
.	.	8ee-/J	8g-\J	.
=476	=476	=476	=476	=476
4BBB-\] 4BB-\]	.	8dd/ 8bb-/	8b-'\	.
.	.	8r	8r	.
*	*	*v	*v	*
4CC-\ 4C-'\	.	4r	.
4CC\ 4C'\	.	4r	.
=477	=477	=477	=477
*	*	*^	*
[2.DD-\ [2.D-\	.	4r	4r	.
.	.	8r	8r	.
.	.	8aa-/L	(8f\L	.
.	.	8bb-/	8g-\	.
.	.	8gg-/J	8b-\J	.
=478	=478	=478	=478	=478
4DD-\] 4D-\]	.	8ff/ &(8ddd-/&)	8dd-'\)	.
.	.	8r	8r	.
*	*	*v	*v	*
4EE-\ 4E-'\	.	4r	.
4EE\ 4E'\	.	4r	.
=479	=479	=479	=479
*	*	*^	*
2.FF\ 2.F\	.	4r	4r	.
.	.	8r	8r	.
.	.	(8ccc/L	8a\	.
.	.	8dd-/ 8ddd-/	4f\ 4b-\	.
.	.	8bb-/J)	.	.
*clefG2	*clefG2	*	*	*
*	*	*v	*v	*
=480	=480	=480	=480
4f/ 4a-/ 4b-/	.	8dd-\ 8ddd\L	f
.	.	8bb\	.
4f/ 4a-/ 4cc-/	.	8ee-\ 8eee-\	.
.	.	8ccc\	.
4f/ 4b-/ 4dd-/	.	8ee\ 8eee\	.
.	.	8ddd-\J	.
=481	=481	=481	=481
2.f\ 2.ee-\	.	2.gg-\ 2.aa\ 2.ccc\ 2.ggg-\	.
=482	=482	=482	=482
2.f/ 2.dd-/	.	2.ff\ 2.bb-\ 2.fff\	.
=483	=483	=483	=483
4f/ 4cc'/	.	4ee-\ 4aa\ 4eee-'\	.
4f/ 4b-'/	.	4dd-\ 4ddd-'\	.
4f/ 4a'/	.	4cc\ 4ccc'\	.
=484	=484	=484	=484
*clefF4	*clefF4	*	*
4D-\ 4d-'\	.	4b-\ 4ff\ 4bb-'\	.
4C'/	.	8r	.
.	.	(8c/L	.
4BB-'/	.	8d-/	.
.	.	8B-/J)	.
=485	=485	=485	=485
2.G-\ 2.g-\	.	4r	.
.	.	4a'/	.
.	.	4cc'\	.
=486	=486	=486	=486
2.F\ 2.f\	.	4ee-'\	.
.	.	4aa'\	.
.	.	4ccc'\	.
=487	=487	=487	=487
4E-\ 4e-'\	.	4gg-\ 4ggg-'\	.
4D-\ 4d-'\	.	4ff\ 4fff'\	.
4C\ 4c'\	.	4ff\ 4fff'\	.
=488	=488	=488	=488
4BB-\ 4B-'\	.	4gg-\ 4ggg-'\	.
4r	.	4ff\ 4fff'\	.
4r	.	4ff\ 4fff'\	.
*clefG2	*clefG2	*	*
=489	=489	=489	=489
*^	*	*	*
4ee-/	2.r	.	4gg-\ 4ggg-'\	.
4dd-/	.	.	4ff\ 4fff'\	.
4cc/	.	.	4ff\ 4fff'\	.
=490	=490	=490	=490	=490
4b-/	4e-\	.	4gg-\ 4ggg-'\	.
4r	4d-\	.	4ff\ 4fff'\	.
4r	4c\	.	4ff\ 4fff'\	.
*v	*v	*	*	*
*clefF4	*clefF4	*	*
=491	=491	=491	=491
*^	*	*	*
4B-/	4E-\	.	4gg-\ 4ggg-'\	.
4r	4D-\	.	4ff\ 4fff'\	.
4r	4C\	.	4ff\ 4fff'\	.
=492	=492	=492	=492	=492
4EE-/	4BB-'\	.	4gg-\ 4ggg-'\	.
4DD-/	4r	.	4ff\ 4fff'\	.
4CC/	4r	.	4ff\ 4fff'\	.
*v	*v	*	*	*
=493	=493	=493	=493
4BBB-'/	.	4gg-\ 4ggg-'\	.
4r	.	4ff\ 4fff'\	.
4r	.	4ff\ 4fff'\	.
=494	=494	=494	=494
2.r	.	2.r	.
=495	=495	=495	=495
2.r	.	4dd-\ 4ddd-'\	p
.	.	4b-\ 4bb-'\	.
.	.	4b-\ 4bb-'\	p
=496	=496	=496	=496
2.r	.	2.r	.
=497	=497	=497	=497
4c-'\	.	2.r	.
4A-'\	.	.	.
4A-'\	.	.	.
=498	=498	=498	=498
4c-'\	.	4r	.
4A-'\	.	8r	.
.	.	(8f/L	.
4A-'\	.	8g-/	.
.	.	8e-/J)	.
=499	=499	=499	=499
4c'\	.	2.r	.
4A'\	.	.	.
4A'\	.	.	.
*	*	*clefF4	*clefF4
=500	=500	=500	=500
4c'\	.	4r	.
4A'\	.	8r	.
.	.	(8F\L	.
4A'\	.	8G-\	.
.	.	8E-\J)	.
*	*	*clefG2	*clefG2
=501	=501	=501	=501
4d-'\	.	4r	.
4B-'\	.	8r	.
.	.	(8f/L	.
4B-'\	.	8g-/	.
.	.	8e-/J)	.
=502	=502	=502	=502
4d-'\	.	4r	.
4c'\	.	8r	.
.	.	(8g/L	.
4c'\	.	8a-/	.
.	.	8e-/J)	.
=503	=503	=503	=503
4d-'\	.	8r	.
.	.	(8a-\L	.
4c-'\	.	8a\	.
.	.	8g-\	.
4c-'\	.	8a\	.
.	.	8ee-'\J)	.
=504	=504	=504	=504
4e-'\	.	8r	.
.	.	(8b-\L	.
4c-'\	.	8cc-'\	.
.	.	8a\	.
4c-'\	.	8ee-\	.
.	.	8gg-\J)	.
=505	=505	=505	=505
4g-'\	.	8r	.
.	.	(8dd\L	.
4c-'\	.	8ee-\	.
.	.	8cc-\	.
4c-'\	.	8ee-\	.
.	.	8aa-\J)	.
=506	=506	=506	=506
4a'\	.	8r	.
.	.	(8ff\L	.
4c-'\	.	8gg-\	.
.	.	8ee-\	.
4c-'\	.	8aa\	.
.	.	8eee-\J	.
=507	=507	=507	=507
4B-\ 4b-'\	.	4bb-\ 4ddd\)	p
4BB-\ 4B-'\	.	4r	.
4BB\ 4B'\	.	4r	.
=508	=508	=508	=508
4C\ 4c'\	.	2.r	.
4D-\ 4d-'\	.	.	.
4D\ 4d'\	.	.	.
=509	=509	=509	=509
2.E-\ 2.G-\ 2.B-\ (2.e-\	.	4cc-'\	p
.	.	4b-'\	.
.	.	4b-'\	.
*clefG2	*clefG2	*	*
=510	=510	=510	=510
2B-/ 2f/	.	4cc-'\	.
.	.	4b-'\	.
4e-/ 4g-/	.	4b-'\	.
=511	=511	=511	=511
2.B-/ 2.f/	.	4cc-'\	.
.	.	4b-'\	.
.	.	4b-'\	.
=512	=512	=512	=512
2G-/ 2e-/)	.	4cc-'\	.
.	.	4b-'\	.
4r	.	4b-'\	.
=513	=513	=513	=513
(2.e-/ 2.g-/	.	4cc-'\	.
.	.	4b-'\	.
.	.	4b-'\	.
=514	=514	=514	=514
2f/ 2a-/	.	4cc-'\	.
.	.	4b-'\	.
4g-/ 4b-/	.	4b-'\	.
=515	=515	=515	=515
2.f/ 2.a-/	.	4cc-'\	.
.	.	4b-'\	.
.	.	4b-'\	.
=516	=516	=516	=516
2e-/) 2g-/	.	4cc-'\	.
.	.	4b-'\	.
4r	.	4b-'\	.
*clefF4	*clefF4	*	*
=517	=517	=517	=517
4c-'\	.	2.e-/ 2.g-/ 2.cc-/ 2.ee-/	.
4C-'/	.	.	.
4C-'/	.	.	.
=518	=518	=518	=518
4G-'\	.	2d-/ 2g-/ 2b-/ 2dd-/	.
4GG-'/	.	.	.
4C-'/	.	4e-/ 4g-/ 4cc-/ 4ee-/	.
=519	=519	=519	=519
4G-'\	.	2.d-/ 2.g-/ 2.b-/ 2.dd-/	.
4GG-'/	.	.	.
4GG-'/	.	.	.
=520	=520	=520	=520
4A-'\	.	2.c-/ 2.e-/ 2.a-/ 2.cc-/	.
4AA-'/	.	.	.
4AA-'/	.	.	.
=521	=521	=521	=521
4E-'\	.	2.B-/ 2.e-/ 2.g-/ 2.b-/	.
4EE-'/	.	.	.
4EE-'/	.	.	.
=522	=522	=522	=522
*	*	*^	*
4C-'/	.	4A-/ 4a-/	2e-\	.
4CC-'/	.	4G-/ 4g-/	.	.
*	*	*v	*v	*
4CC-'/	.	4A-/ 4a-/	.
=523	=523	=523	=523
4BB-'/	.	2B-/ 2d/ 2f/ 2b-/	.
4BBB-'/	.	.	.
4BBB/ 4BB'/	.	4B/ 4b'/	.
=524	=524	=524	=524
4CC/ 4C'/	.	4c/ 4cc'/	.
4DD-/ 4D-'/	.	4d-/ 4dd-'/	.
4DD/ 4D'/	.	4d/ 4dd'/	.
=525	=525	=525	=525
4EE-/ 4E-'/	.	4e-/ 4cc-/ 4ee-'/	.
4B-'\	.	4b-'\	.
4B-'\	.	4b-'\	.
=526	=526	=526	=526
4E-\ 4G-\ 4c-\	.	4f\ 4cc-\ 4ff'\	.
4B-'\	.	4b-\	.
4B-'\	.	4g-\ 4b-\ 4gg-'\	.
=527	=527	=527	=527
4E-\ 4G-\ 4c-'\	.	4f\ 4cc-\ 4ff'\	.
4B-'\	.	4b-'\	.
4B-'\	.	4b-'\	.
=528	=528	=528	=528
4E-\ 4G-\ 4c-'\	.	4e-/ 4cc-/ 4ee-'/	.
4B-'\	.	4b-'\	.
4B-'\	.	4b-'\	.
=529	=529	=529	=529
4E-\ 4G-\ 4c-'\	.	4g-\ 4cc-\ 4gg-'\	.
4B-'\	.	4b-\	.
4B-'\	.	4b-'\	.
=530	=530	=530	=530
4E-\ 4G-\ 4c-'\	.	4a-\ 4cc-\ 4aa-'\	.
4B-'\	.	4b-'\	.
4B-'\	.	4b-\ 4bb-'\	.
=531	=531	=531	=531
4E-\ 4G-\ 4c-'\	.	4a-\ 4cc-\ 4aa-'\	.
4B-'\	.	4b-'\	.
4B-'\	.	4b-'\	.
=532	=532	=532	=532
4E-\ 4G-\ 4c-'\	.	4g-\ 4cc-\ 4gg-'\	.
4B-'\	.	4b-'\	.
4B-'\	.	4b-'\	.
=533	=533	=533	=533
4C-\ 4E-\ 4G-\ 4c-'\	.	2.ee-\ 2.gg-\ 2.ccc-\ 2.eee-\	ff
4CC-/ 4C-'/	.	.	.
4CC-/ 4C-'/	.	.	.
=534	=534	=534	=534
4GG-/ 4G-'/	.	2dd-\ 2gg-\ 2bb-\ 2ddd-\	.
4GGG-/ 4GG-'/	.	.	.
4CC-/ 4C-'/	.	4ee-\ 4gg-\ 4ccc-\ 4eee-\	.
=535	=535	=535	=535
4FF-/ 4F-'/	.	2.ff-\ 2.aa-\ 2.ccc-\ 2.fff-\	.
4FFF-/ 4FF-'/	.	.	.
4FFF-/ 4FF-'/	.	.	.
=536	=536	=536	=536
4C-\ 4E-\ 4G-\ 4c-'\	.	2.ee-\ 2.gg-\ 2.ccc-\ 2.eee-\	.
4CC-/ 4C-'/	.	.	.
4CC-/ 4C-'/	.	.	.
=537	=537	=537	=537
4D-\ 4F-\ 4d-'\	.	2.dd-\ 2.ff-\ 2.aa-\ 2.ddd-\	.
4DD-/ 4D-'/	.	.	.
4DD-/ 4D-'/	.	.	.
=538	=538	=538	=538
*	*	*^	*
4C-\ 4E-\ 4c-'\	.	2.ee-/	4a-\ (4aa-\	.
4CC-/ 4C-'/	.	.	4g-\ 4gg-\	.
4CC-/ 4C-'/	.	.	4a-\ 4aa-\)	.
*	*	*v	*v	*
=539	=539	=539	=539
4BB-\ 4D\ 4B-'\	.	2.b-\ 2.dd\ 2.ff\ 2.bb-\	.
4BBB-/ 4BB-'/	.	.	.
4BBB-/ 4BB-'/	.	.	.
=540	=540	=540	=540
4BB-\ 4B-'\	.	4r	.
4BBB-/ 4BB-'/	.	8r	.
.	.	(8ff\L	.
4EE-/ 4E-'/	.	8gg-\	.
.	.	8ee-\J	.
=541	=541	=541	=541
4BB-\ 4B-'\	.	8b-\ 8bb-'\)	.
.	.	8r	.
4BBB-/ 4BB-'/	.	8r	.
.	.	(8ff\L	.
4EE-/ 4E-'/	.	8gg-\	.
.	.	8ee-\J	.
=542	=542	=542	=542
4BB-\ 4B-\	.	8b-\ 8bb-\)	.
.	.	8r	.
4BBB-/ 4BB-'/	.	8r	.
.	.	(8ff\L	.
4EE-/ 4E-/	.	8gg-\	.
.	.	8ee-\J	.
=543	=543	=543	=543
8BB-\ 8B-'\	.	8b-\ 8bb-'\)	.
8r	.	8r	.
8r	.	4r	.
(8FF/L	.	.	.
8GG-/	.	4r	.
8EE-/J	.	.	.
=544	=544	=544	=544
8BB-\)	.	4r	.
8r	.	.	.
8r	.	8r	.
(8F/L	.	4r	.
8G-/	.	.	.
8E-/J	.	8r	.
*clefG2	*clefG2	*	*
=545	=545	=545	=545
*^	*	*	*
4r	2.B-\)	.	4r	.
8r	.	.	8r	.
(8d/L	.	.	(8ff\L	.
8e-/	.	.	8gg-\	.
8g-/J	.	.	8ee-\J	.
=546	=546	=546	=546	=546
8b-/)	2.B-\	.	8dd\ 8bb-'\)	.
8r	.	.	8r	.
8r	.	.	8r	.
(8d/L	.	.	(8ff\L	.
8e-/	.	.	8gg-\	.
8g-/J	.	.	8ee-\J	.
=547	=547	=547	=547	=547
8b-/)	2.B-\	.	8dd\ 8bb-'\)	.
8r	.	.	8r	.
4r	.	.	8r	.
*	*	*	*clefF4	*clefF4
.	.	.	(8E\L	.
4r	.	.	8F\	.
.	.	.	8D\J	.
=548	=548	=548	=548	=548
4r	[2.B-\	.	8BB-'/)	.
.	.	.	8r	.
8r	.	.	8r	.
*	*	*	*clefG2	*clefG2
(8d/L	.	.	(8ff\L	p
8e-/	.	.	8gg-\	.
8g-/J	.	.	8ee-\J	.
=549	=549	=549	=549	=549
8a-/)	2.B-\]	.	8ee-\ 8ccc-'\)	.
8r	.	.	8r	.
8r	.	.	4r	.
(8f/L	.	.	.	.
8g-/	.	.	8ee-\ 8bb-'\	.
8e-/J	.	.	8r	.
=550	=550	=550	=550	=550
8cc-/)	4.B-\	.	8ee-\ 8aa-'\	.
8r	.	.	8r	.
8r	.	.	4r	.
*v	*v	*	*	*
(8d/L	.	.	.
8e-/	.	8b-\ 8ee-\ 8gg-'\	.
[8B-/J	.	8r	.
=551	=551	=551	=551
*^	*	*	*
8a-/)	2.B-\]	.	8cc-\ 8ff'\	.
8r	.	.	8r	.
4r	.	.	4r	.
8g-/	.	.	8a\ 8cc\ 8ee-'\	.
8r	.	.	8r	.
=552	=552	=552	=552	=552
8f/	8B-\	.	8b-\ 8dd\	.
*v	*v	*	*	*
8r	.	8r	.
8r	.	4r	.
*clefF4	*clefF4	*	*
(8E\L	.	.	.
8F\	.	4r	.
8D\J	.	.	.
=553	=553	=553	=553
8BB-'/)	.	4r	.
8r	.	.	.
4r	.	8r	.
.	.	(8e/L	.
4r	.	8f/	.
.	.	8d/J)	.
*clefG2	*clefG2	*	*
=554	=554	=554	=554
*^	*	*	*
4r	[2.B-\	.	4r	.
8r	.	.	8r	.
(8d/L	.	.	(8ff\L	.
8e-/	.	.	8gg-\	.
8g-/J	.	.	8ee-\J	.
=555	=555	=555	=555	=555
8b-/)	2.B-\_	.	8dd#\ 8bb-'\)	.
8r	.	.	8r	.
8r	.	.	8r	.
(8d/L	.	.	(8ff\L	.
8e-/	.	.	8gg-\	.
8g-/J	.	.	8ee-\J	.
=556	=556	=556	=556	=556
8b-/)	4B-\]	.	8dd#\ 8bb-'\)	.
8r	.	.	8r	.
4r	4c-\	.	4r	.
4r	&((4c\&)	.	4r	.
=557	=557	=557	=557	=557
4r	2.d-\	.	4r	.
8r	.	.	8r	.
8f'/L	.	.	(8aa-\L	.
8g-/	.	.	8bb--\	.
8b--/J	.	.	8gg-\J	.
=558	=558	=558	=558	=558
&(8dd-/&)	(4d-\)	.	8ff\ 8ddd-'\)	.
8r	.	.	8r	.
4r	4d\	.	4r	.
4r	4e-\)	.	4r	.
=559	=559	=559	=559	=559
4r	[2.e\	.	4r	.
8r	.	.	8r	.
(8g#/L	.	.	(8bb\L	.
8a/	.	.	8ccc#\	.
8cc#/J	.	.	8aa\J	.
=560	=560	=560	=560	=560
8ee/)	2.e\]	.	8gg#\ 8eee'\)	.
8r	.	.	8r	.
8r	.	.	8r	.
(8g#/L	.	.	(8bb\L	.
8a/	.	.	8ccc#\	.
8cc#/J	.	.	8aa\J	.
=561	=561	=561	=561	=561
8ee'/)	[2.e\	.	8gg#\ 8eee'\)	.
8r	.	.	8r	.
8r	.	.	8r	.
(8g#/L	.	.	(8bb\L	.
8a/	.	.	8ccc#\	.
8cc#/J	.	.	8aa\J	.
=562	=562	=562	=562	=562
8ee/)	8e\]	.	8gg#\ 8eee'\)	.
*v	*v	*	*	*
8r	.	8r	.
4e/ 4b'/	.	4gg#\ 4ddd'\	.
4e/ 4b'/	.	4gg#\ 4ddd'\	.
=563	=563	=563	=563
4f/ 4cc-'/	.	4dd\ 4aa-\ 4ddd'\	.
4f/ 4cc-'/	.	4dd\ 4aa-\ 4ddd'\	.
4f/ 4cc-'/	.	4dd\ 4aa-\ 4ddd'\	.
=564	=564	=564	=564
4g-/ 4b-'/	.	4ee-\ 4bb-\ 4eee-'\	.
4g-/ 4b-'/	.	4ee-\ 4bb-\ 4eee-'\	.
4g-/ 4b-'/	.	4ee-\ 4bb-\ 4eee-'\	.
*clefF4	*clefF4	*	*
=565	=565	=565	=565
4r	.	4r	.
4r	.	4r	.
4GG/ 4E-/ 4G'/	.	4b-\ 4dd-\ 4ee-\ 4bb-'\	ff
=566	=566	=566	=566
2.AA-\ 2.E-\ 2.A-\	.	2.cc-\ 2.ee-\ 2.ccc-\	.
=567	=567	=567	=567
2.BB-\ 2.E-\ 2.F\ 2.B-\	.	2.b-\ 2.ee-\ 2.bb-\	.
=568	=568	=568	=568
4C-\ 4F\ 4c-'\	.	4a-\ 4ee-\ 4aa-'\	.
4BB-\ 4F\ 4B-'\	.	4g-\ 4ee-\ 4gg-'\	.
4AA-\ 4F\ 4A-'\	.	4f\ 4ee-\ 4ff'\	.
=569	=569	=569	=569
4GG-/ 4G-'/	.	4e-/ 4b-/ 4ee-'/	.
4FF/ 4F'/	.	4r	.
4EE-/ 4E-'/	.	4B-/ 4e-/ 4g-/ 4b-'/	.
=570	=570	=570	=570
2.AAA-/ 2.AA-/	.	2.c-/ 2.e-/ 2.f/ 2.cc-/	.
=571	=571	=571	=571
2.BBB-/ 2.BB-/	.	2.B-/ 2.e-/ 2.f/ 2.b-/	.
=572	=572	=572	=572
4CC-/ 4C-'/	.	4A-/ 4e-/ 4a-'/	.
4BBB-/ 4BB-'/	.	4G-/ 4e-/ 4g-'/	.
4AAA-/ 4AA-'/	.	4F/ 4e-/ 4f'/	.
=573	=573	=573	=573
2AAA-/ 2AA-/	.	2c/ 2e-/ 2f/ 2cc/	.
4r	.	4F/ 4f'/	.
=574	=574	=574	=574
2.BBB-/ 2.FF/ 2.BB-/	.	2.f\ 2.b-\ 2.dd-\ 2.ff\	.
=575	=575	=575	=575
2.CC/ 2.C/	.	2.e-/ 2.g-/ 2.b-/ 2.ee-/	.
=576	=576	=576	=576
2FF/ 2BB-/ 2F/	.	2d-/ 2f/ 2b-/ 2dd-/	.
[4EE-/ [4C/ [4E-/	.	[4c/ [4f/ [4cc/	.
=577	=577	=577	=577
4EE-/] 4C/] 4E-/]	.	4c/] 4f/] 4cc/]	.
2DD-/ 2D-/	.	2B-/ 2f/ 2b-/	.
=578	=578	=578	=578
[2.DD/ [2.AA-/ [2.D/	.	[2.cc-\ [2.ff\ 2.aa-\ [2.ccc-\	.
=579	=579	=579	=579
4DD/] 4AA-/] 4D/]	.	4cc-\] 4ff\] 4ccc-\]	.
8r	.	8r	.
(8BB-/L	ff	8c#/L	.
8C-/	.	8d/	.
8D/J	.	8c-/J	.
=580	=580	=580	=580
8F\)	.	8f'/	.
8r	.	8r	.
4r	.	4r	.
4r	.	4r	.
=581	=581	=581	=581
4r	.	4r	.
8r	.	8r	.
8C#\L	.	(8e/L	.
8D\	.	8f/	.
8F\J	.	8d/J	.
=582	=582	=582	=582
8A-'\	.	8a-'/)	.
8r	.	8r	.
4r	.	4r	.
4r	.	4r	.
=583	=583	=583	=583
4r	.	4r	.
8r	.	8r	.
(8E\L	.	(8b-/L	.
8F\	.	8cc-/	.
8A-\J	.	8f/J	.
*clefG2	*clefG2	*	*
=584	=584	=584	=584
8d/L	.	8dd\L	.
8B-/	.	8cc#\	.
8c-/	.	8dd\	.
8d/	.	8cc-\	.
8f'/	.	8ff\	.
8c#/J	.	8ee\J	.
=585	=585	=585	=585
8d/L	.	8ff\L	.
8f/	.	8dd\	.
8a-/	.	8ccc-\	.
8e/	.	8bb-\	.
8f/J)	.	8ccc-\	.
8r	.	8ff\J)	.
=586	=586	=586	=586
8a-/L	.	(8aaa-\L	ff
8g-/	.	8ggg-\	.
8f/	.	8fff\	.
8e-/	.	8eee-\	.
8d/	.	8ddd\	.
8c-/J	.	8ccc-\J	.
*clefF4	*clefF4	*	*
=587	=587	=587	=587
8B-\L	.	8bb-\L	.
8A-\	.	8aa-\	.
8G-\	.	8gg-\	.
8F\	.	8ff\	.
8E-\	.	8ee-\	.
8D\J	.	8dd\J	.
=588	=588	=588	=588
8C-/L	.	8cc-/L	.
8BB-/	.	8b-/	.
8AA-/	.	8a-/	.
8GG-/	.	8g-/	.
8FF/	.	8f/	.
8EE-/J	.	8e-/J	.
=589	=589	=589	=589
8DD/L	.	8d/L	.
8CC-/	.	8c-/	.
8BBB-/	.	8B-/	.
8AAA-/	.	8A-/	.
8GGG-/	.	8G-/	.
8FFF/J	.	8F/J)	.
=590	=590	=590	=590
4EEE-/ 4EE-'/	.	4e-/ 4cc-/ 4ee-'/	.
4BB-'/	.	4b-'\	.
4BB-'/	.	4b-'\	.
=591	=591	=591	=591
4FF/ 4C-/ 4F'/	.	4f\ 4cc-\ 4ff'\	.
4BB-'/	.	4b-'\	.
4GG-/ 4BB-/ 4G-'/	.	4g-\ 4b-\ 4gg-'\	.
=592	=592	=592	=592
4FF/ 4C-/ 4F'/	.	4f\ 4cc-\ 4ff'\	.
4BB-'/	.	4b-'\	.
4BB-'/	.	4b-'\	.
=593	=593	=593	=593
4EE-/ 4C-/ 4E-'/	.	4e-/ 4cc-/ 4ee-'/	.
4BB-'/	.	4b-'\	.
4BB-'/	.	4b-'\	.
=594	=594	=594	=594
4GG-/ 4C-/ 4G-'/	.	4g-\ 4cc-\ 4gg-'\	.
4BB-'/	.	4b-'\	.
4BB-'/	.	4b-'\	.
=595	=595	=595	=595
4AA-\ 4C-\ 4A-'\	.	4a-\ 4cc-\ 4aa-'\	.
4BB-'/	.	4b-'\	.
4BB-\ 4B-'\	.	4b-\ 4bb-'\	.
=596	=596	=596	=596
4AA-\ 4C-\ 4A-'\	.	4a-\ 4cc-\ 4aa-'\	f
4BB-'/	.	4b-'\	.
4BB-'/	.	4b-'\	.
=597	=597	=597	=597
4GG-/ 4C-/ 4G-'/	.	4g-\ 4cc-\ 4gg-'\	.
4BB-'/	.	4b-'\	.
4BB-'/	.	4b-'\	.
=598	=598	=598	=598
4EE-/ 4C-/ 4E-'/	.	4ee-\ 4ccc-\ 4eee-'\	.
4BB-'/	.	4bb-'\	.
4BB-'/	.	4bb-'\	.
=599	=599	=599	=599
4FF/ 4C-/ 4F'/	.	4f\ 4cc-\ 4ff'\	.
4BB-'/	.	4b-'\	.
4GG-/ 4BB-/ 4G-'/	.	4g-\ 4b-\ 4gg-'\	.
=600	=600	=600	=600
4FF/ 4C-/ 4F'/	.	4f\ 4cc-\ 4ff'\	.
4BB-'/	.	4b-'\	.
4BB-'/	.	4b-'\	.
=601	=601	=601	=601
4EE-/ 4C-/ 4E-'/	.	4e-/ 4cc-/ 4ee-'/	.
4BB-'/	.	4b-'\	.
4BB-'/	.	4b-'\	.
=602	=602	=602	=602
4GG-/ 4C-/ 4G-'/	.	4g-\ 4cc-\ 4gg-'\	.
4BB-'/	.	4b-'\	.
4BB-'/	.	4b-'\	.
=603	=603	=603	=603
4AA-\ 4C-\ 4A-'\	.	4a-\ 4cc-\ 4aa-'\	.
4BB-'/	.	4b-'\	.
4BB-\ 4B-'\	.	4b-\ 4bb-'\	.
=604	=604	=604	=604
4C-\ 4c-'\	.	4cc-\ 4ccc-'\	.
4AA-\ 4A-'\	.	4a-\ 4aa-'\	.
4FF/ 4F'/	.	4f\ 4ff'\	.
=605	=605	=605	=605
4DD/ 4D'/	.	4dd\ 4ddd'\	.
4CC-/ 4C-'/	.	4cc-\ 4ccc-'\	.
4BBB-/ 4BB-'/	.	4b-\ 4bb-'\	.
=606	=606	=606	=606
4EEE-/ 4EE-'/	.	4e-/ 4ee-'/	.
4FFF/ 4FF'/	.	4F/ 4f'/	.
4GGG-/ 4GG-'/	.	4G-/ 4g-'/	.
=607	=607	=607	=607
4FFF/ 4FF'/	.	4F/ 4f'/	.
4r	.	4r	.
4EEE-/ 4EE-'/	.	4E-/ 4e-'/	.
=608	=608	=608	=608
4GGG-/ 4GG-'/	.	4G-/ 4g-'/	.
4AAA-/ 4AA-'/	.	4A-/ 4a-'/	.
4BBB-/ 4BB-'/	.	4B-/ 4b-'/	.
=609	=609	=609	=609
4AAA-/ 4AA-'/	.	4A-/ 4a-'/	.
4r	.	4r	.
4GGG-/ 4GG-'/	.	4G-/ 4g-'/	.
=610	=610	=610	=610
4EE-/ 4E-'/	.	4e-/ 4ee-'/	.
4FF/ 4F'/	.	4f\ 4ff'\	.
4GG-/ 4G-'/	.	4g-\ 4gg-'\	.
=611	=611	=611	=611
4FF/ 4F'/	.	4f\ 4ff'\	.
4r	.	4r	.
4EE-/ 4E-'/	.	4e-/ 4ee-'/	.
=612	=612	=612	=612
4GG-/ 4G-'/	.	4g-\ 4gg-'\	.
4AA-\ 4A-'\	.	4a-\ 4aa-'\	.
4BB-\ 4B-'\	.	4b-\ 4bb-'\	.
=613	=613	=613	=613
4AA-\ 4A-'\	.	4a-\ 4aa-'\	.
4r	.	4r	.
4GG-/ 4G-'/	.	4g-\ 4gg-'\	.
=614	=614	=614	=614
4EE-/ 4E-'/	.	4e-/ 4ee-'/	.
4FF/ 4F'/	.	4f\ 4ff'\	.
4GG-/ 4G-'/	.	4g-\ 4gg-'\	.
=615	=615	=615	=615
4EE-/ 4E-'/	.	4e-/ 4ee-'/	.
4FF/ 4F'/	.	4f\ 4ff'\	.
4GG-/ 4G-'/	.	4g-\ 4gg-'\	.
=616	=616	=616	=616
4EE-/ 4E-'/	.	4e-/ 4ee-'/	.
4FF/ 4F'/	.	4f\ 4ff'\	.
4GG-/ 4G-'/	.	4g-\ 4gg-'\	.
=617	=617	=617	=617
4EE-/ 4E-'/	.	4e-/ 4ee-'/	.
4FF/ 4F'/	.	4f\ 4ff'\	.
4GG-/ 4G-'/	.	4g-\ 4gg-'\	.
=618	=618	=618	=618
[2.CC-/ [2.C-/	.	2.r	.
=619	=619	=619	=619
2.CC-/_ 2.C-/_	.	[2.c-/ [2.cc-/	ff
=620	=620	=620	=620
2.CC-/] 2.C-/]	.	2.c-/] 2.cc-/]	.
=621	=621	=621	=621
2.BBB-/ 2.BB-/	.	2.B-/ 2.b-/	.
=622	=622	=622	=622
4AAA/ 4AA'/	ff	4A/ 4a'/	.
*clefG2	*clefG2	*	*
4A/ 4c/ 4e-/ 4g-'/	.	4cc\ 4ee-\ 4gg-\ 4ccc'\	.
4r	.	4r	.
=623	=623	=623	=623
2.r	.	2.r	.
*clefF4	*clefF4	*	*
=624	=624	=624	=624
4BBB-/ 4BB-'/	ff	4B-/ 4e-/ 4g-/ 4b-'/	.
*clefG2	*clefG2	*	*
4B-/ 4e-/ 4g-/ 4b-'/	.	4b-\ 4ee-\ 4gg-\ 4bb-'\	.
4r	.	4r	.
=625	=625	=625	=625
2.r	.	2.r	.
*clefF4	*clefF4	*	*
=626	=626	=626	=626
4BBB-/ 4BB-'/	ff	4B-/ 4d/ 4f/ 4b-'/	.
*clefG2	*clefG2	*	*
4B-/ 4d/ 4f/ 4b-'/	.	4b-\ 4dd\ 4ff\ 4bb-'\	.
4r	.	4r	.
=627	=627	=627	=627
2.r	.	2.r	.
*clefF4	*clefF4	*	*
=628	=628	=628	=628
4E-\ 4G-\ 4B-\ 4e-'\	.	4g-\ 4b-\ 4ee-\ 4gg-'\	ff
4r	.	4r	.
4r	.	4r	.
=629	=629	=629	=629
4EEE-/ 4EE-/	.	4E-'/	.
4r	.	4r	.
4r	.	4r	.
==	==	==	==
*-	*-	*-	*-
!!!ENC: Craig Stuart Sapp
!!!END: 2004/03/27/
!!!ONB: Test conversion from MusicXML; no proof reading done
